; generated by PrusaSlicer 2.0.0+linux64 on 2022-03-18 at 12:19:09

; 

; external perimeters extrusion width = 0.45mm
; perimeters extrusion width = 0.45mm
; infill extrusion width = 0.45mm
; solid infill extrusion width = 0.45mm
; top infill extrusion width = 0.40mm
; support material extrusion width = 0.40mm
; first layer extrusion width = 0.42mm

M201 X9000 Y9000 Z500 E10000 ; sets maximum accelerations, mm/sec^2
M203 X500 Y500 Z12 E120 ; sets maximum feedrates, mm/sec
M204 P1500 R1500 T1500 ; sets acceleration (P, T) and retract acceleration (R), mm/sec^2
M205 X10.00 Y10.00 Z0.20 E2.50 ; sets the jerk limits, mm/sec
M205 S0 T0 ; sets the minimum extruding and travel feed rate, mm/sec
M107
M104 S225 ; set temperature
G90                         ; Explicitly force absolute positioning in case it was not reset previously.
G28                         ; Home all axes.
G29                         ; Auto-level the bed.
; Filament gcode
M109 S225 ; set temperature and wait for it to be reached
G21 ; set units to millimeters
G90 ; use absolute coordinates
M82 ; use absolute distances for extrusion
G92 E0
G1 Z0.350 F7800.000
G1 E-2.00000 F2400.00000
G92 E0
G1 X34.410 Y94.204 F7800.000
G1 E2.00000 F2400.00000
G1 F1800
G1 X32.930 Y94.620 E2.07712
G1 X19.658 Y95.854 E2.74608
G1 X18.474 Y95.841 E2.80547
G1 X17.418 Y95.653 E2.85931
G1 X16.383 Y95.271 E2.91468
G1 X15.432 Y94.711 E2.97006
G1 X14.687 Y94.083 E3.01898
G1 X5.274 Y84.661 E3.68736
G1 X4.402 Y83.433 E3.76294
G1 X3.854 Y82.030 E3.83853
G1 X3.672 Y80.874 E3.89728
G1 X3.703 Y79.537 E3.96440
G1 X5.909 Y64.416 E4.73128
G1 X6.293 Y63.029 E4.80350
G1 X6.991 Y61.764 E4.87603
G1 X7.645 Y60.992 E4.92680
G1 X61.973 Y6.795 E8.77802
G1 X63.259 Y6.011 E8.85361
G1 X64.697 Y5.563 E8.92920
G1 X79.713 Y3.426 E9.69039
G1 X80.798 Y3.370 E9.74489
G1 X81.903 Y3.471 E9.80057
G1 X82.972 Y3.768 E9.85625
G1 X83.970 Y4.252 E9.91193
G1 X84.862 Y4.902 E9.96730
G1 X94.481 Y14.507 E10.64953
G1 X95.192 Y15.422 E10.70766
G1 X95.719 Y16.453 E10.76579
G1 X96.092 Y17.843 E10.83802
G1 X96.144 Y19.369 E10.91464
G1 X94.709 Y32.644 E11.58474
G1 X94.572 Y33.417 E11.62414
G1 X94.337 Y34.172 E11.66385
G1 X93.594 Y35.552 E11.74249
G1 X93.063 Y36.196 E11.78435
G1 X90.336 Y39.004 E11.98081
G1 X59.136 Y70.204 E14.19516
G1 X36.361 Y92.897 E15.80872
G1 X35.740 Y93.436 E15.84997
G1 X34.461 Y94.174 E15.92407
G1 X34.310 Y93.905 F7800.000
G1 F1800
G1 X34.163 Y93.988 E15.93251
G1 X32.583 Y94.371 E16.01412
G1 X24.103 Y94.381 E16.43971
G1 X23.808 Y94.354 E16.45456
G1 X23.046 Y94.358 E16.49278
G1 X22.617 Y94.281 E16.51464
G1 X21.745 Y94.821 E16.56613
G1 X19.918 Y95.357 E16.66169
G1 X18.058 Y95.311 E16.75509
G1 X16.890 Y94.968 E16.81618
G1 X15.802 Y94.396 E16.87789
G1 X5.478 Y84.194 E17.60626
G1 X4.307 Y81.937 E17.73387
G1 X4.163 Y81.005 E17.78123
G1 X4.135 Y79.901 E17.83662
G1 X4.618 Y77.979 E17.93609
G1 X5.440 Y76.629 E18.01540
G1 X6.146 Y75.899 E18.06638
G1 X6.146 Y64.809 E18.62297
G1 X6.480 Y63.357 E18.69771
G1 X7.133 Y62.105 E18.76861
G1 X8.424 Y60.774 E18.86166
G1 X9.447 Y60.197 E18.92060
G1 X9.557 Y59.932 E18.93501
G1 X10.125 Y59.063 E18.98710
G1 X11.107 Y58.079 E19.05685
G1 X12.161 Y57.400 E19.11981
G1 X13.022 Y57.108 E19.16540
G1 X13.898 Y55.858 E19.24202
G1 X14.898 Y54.987 E19.30862
G1 X15.629 Y54.596 E19.35020
G1 X15.740 Y54.333 E19.36450
G1 X16.537 Y53.157 E19.43583
G1 X17.653 Y52.154 E19.51114
G1 X18.388 Y51.760 E19.55297
G1 X18.501 Y51.494 E19.56752
G1 X19.416 Y50.187 E19.64757
G1 X20.417 Y49.315 E19.71417
G1 X21.147 Y48.925 E19.75575
G1 X21.260 Y48.658 E19.77029
G1 X22.175 Y47.351 E19.85035
G1 X23.176 Y46.480 E19.91694
G1 X23.907 Y46.089 E19.95852
G1 X24.019 Y45.822 E19.97306
G1 X24.934 Y44.515 E20.05312
G1 X25.935 Y43.644 E20.11971
G1 X26.654 Y43.259 E20.16063
G1 X26.719 Y43.109 E20.16885
G1 X27.535 Y41.858 E20.24380
G1 X28.648 Y40.840 E20.31952
G1 X29.410 Y40.439 E20.36271
G1 X30.076 Y39.290 E20.42938
G1 X31.177 Y38.175 E20.50802
G1 X32.161 Y37.614 E20.56488
G1 X32.231 Y37.441 E20.57421
G1 X32.763 Y36.553 E20.62618
G1 X33.817 Y35.433 E20.70340
G1 X34.953 Y34.764 E20.76952
G1 X35.202 Y34.200 E20.80049
G1 X35.917 Y33.234 E20.86079
G1 X36.790 Y32.432 E20.92028
G1 X37.815 Y31.845 E20.97955
G1 X38.071 Y31.293 E21.01011
G1 X38.671 Y30.483 E21.06066
G1 X39.404 Y29.767 E21.11210
G1 X40.487 Y29.061 E21.17699
G1 X40.665 Y28.985 E21.18670
G1 X40.931 Y28.415 E21.21826
G1 X41.513 Y27.639 E21.26694
G1 X42.215 Y26.951 E21.31630
G1 X43.309 Y26.233 E21.38196
G1 X43.500 Y26.151 E21.39235
G1 X43.767 Y25.580 E21.42403
G1 X44.349 Y24.804 E21.47270
G1 X45.051 Y24.115 E21.52207
G1 X46.145 Y23.397 E21.58773
G1 X46.335 Y23.316 E21.59812
G1 X46.602 Y22.744 E21.62979
G1 X47.184 Y21.968 E21.67847
G1 X47.887 Y21.279 E21.72783
G1 X48.981 Y20.562 E21.79350
G1 X49.171 Y20.480 E21.80390
G1 X49.440 Y19.904 E21.83581
G1 X50.023 Y19.129 E21.88445
G1 X50.725 Y18.441 E21.93379
G1 X51.817 Y17.726 E21.99930
G1 X52.006 Y17.644 E22.00965
G1 X52.273 Y17.073 E22.04132
G1 X52.856 Y16.297 E22.09000
G1 X53.558 Y15.608 E22.13936
G1 X54.652 Y14.890 E22.20502
G1 X54.842 Y14.809 E22.21541
G1 X55.109 Y14.237 E22.24709
G1 X55.691 Y13.461 E22.29577
G1 X56.393 Y12.772 E22.34513
G1 X57.487 Y12.055 E22.41079
G1 X57.678 Y11.973 E22.42118
G1 X57.945 Y11.401 E22.45285
G1 X58.527 Y10.626 E22.50153
G1 X59.229 Y9.937 E22.55089
G1 X60.323 Y9.219 E22.61657
G1 X60.483 Y9.149 E22.62534
G1 X60.557 Y8.974 E22.63487
G1 X61.097 Y8.111 E22.68594
G1 X62.161 Y7.023 E22.76231
G1 X63.640 Y6.169 E22.84802
G1 X65.312 Y5.771 E22.93428
G1 X76.280 Y5.777 E23.48471
G1 X77.016 Y5.070 E23.53595
G1 X78.228 Y4.343 E23.60686
G1 X79.832 Y3.889 E23.69050
G1 X81.526 Y3.895 E23.77553
G1 X83.110 Y4.345 E23.85816
G1 X84.513 Y5.217 E23.94109
G1 X94.331 Y15.034 E24.63789
G1 X95.368 Y16.875 E24.74390
G1 X95.656 Y18.223 E24.81310
G1 X95.634 Y19.715 E24.88796
G1 X95.134 Y21.410 E24.97665
G1 X94.426 Y22.560 E25.04442
G1 X94.438 Y32.507 E25.54364
G1 X94.104 Y33.961 E25.61851
G1 X93.424 Y35.247 E25.69152
G1 X92.239 Y36.483 E25.77742
G1 X91.338 Y37.010 E25.82981
G1 X91.235 Y37.266 E25.84367
G1 X90.694 Y38.143 E25.89535
G1 X89.601 Y39.260 E25.97380
G1 X88.429 Y39.971 E26.04264
G1 X87.935 Y40.873 E26.09422
G1 X86.969 Y41.930 E26.16606
G1 X85.628 Y42.807 E26.24651
G1 X85.065 Y43.758 E26.30196
G1 X84.172 Y44.734 E26.36836
G1 X82.755 Y45.652 E26.45310
G1 X82.010 Y45.904 E26.49257
G1 X81.547 Y46.680 E26.53790
G1 X80.807 Y47.484 E26.59275
G1 X79.873 Y48.195 E26.65164
G1 X79.430 Y48.399 E26.67610
G1 X79.314 Y48.689 E26.69177
G1 X78.626 Y49.711 E26.75359
G1 X77.840 Y50.505 E26.80971
G1 X77.262 Y50.904 E26.84492
G1 X77.070 Y51.411 E26.87211
G1 X76.238 Y52.666 E26.94771
G1 X75.582 Y53.307 E26.99375
G1 X74.866 Y53.838 E27.03848
G1 X74.289 Y54.108 E27.07041
G1 X74.195 Y54.328 E27.08243
G1 X73.512 Y55.366 E27.14481
G1 X72.470 Y56.365 E27.21727
G1 X71.434 Y56.995 E27.27811
G1 X71.369 Y57.149 E27.28647
G1 X70.742 Y58.120 E27.34451
G1 X69.986 Y58.913 E27.39949
G1 X69.112 Y59.559 E27.45399
G1 X68.623 Y59.774 E27.48083
G1 X68.546 Y59.955 E27.49072
G1 X67.826 Y61.058 E27.55681
G1 X66.821 Y62.021 E27.62669
G1 X65.782 Y62.655 E27.68776
G1 X65.232 Y63.584 E27.74194
G1 X64.334 Y64.568 E27.80878
G1 X63.259 Y65.330 E27.87488
G1 X62.889 Y65.484 E27.89504
G1 X62.525 Y66.232 E27.93678
G1 X61.279 Y67.590 E28.02927
G1 X60.242 Y68.257 E28.09117
G1 X60.068 Y68.331 E28.10065
G1 X59.801 Y68.904 E28.13235
G1 X59.269 Y69.620 E28.17709
G1 X58.623 Y70.281 E28.22350
G1 X57.243 Y71.170 E28.30588
G1 X56.498 Y71.421 E28.34536
G1 X55.895 Y72.363 E28.40145
G1 X55.174 Y73.106 E28.45341
G1 X54.331 Y73.728 E28.50601
G1 X53.915 Y73.918 E28.52897
G1 X53.818 Y74.149 E28.54154
G1 X53.007 Y75.357 E28.61454
G1 X52.326 Y76.018 E28.66215
G1 X51.612 Y76.541 E28.70657
G1 X51.157 Y76.750 E28.73169
G1 X51.059 Y76.985 E28.74449
G1 X50.247 Y78.192 E28.81748
G1 X49.567 Y78.853 E28.86509
G1 X48.853 Y79.376 E28.90951
G1 X48.398 Y79.586 E28.93464
G1 X48.300 Y79.821 E28.94743
G1 X47.488 Y81.028 E29.02042
G1 X46.808 Y81.689 E29.06804
G1 X46.094 Y82.212 E29.11246
G1 X45.641 Y82.420 E29.13749
G1 X45.550 Y82.636 E29.14920
G1 X44.752 Y83.834 E29.22148
G1 X43.820 Y84.711 E29.28571
G1 X42.863 Y85.304 E29.34221
G1 X42.793 Y85.469 E29.35119
G1 X42.058 Y86.594 E29.41863
G1 X41.073 Y87.537 E29.48705
G1 X40.115 Y88.123 E29.54344
G1 X39.569 Y89.079 E29.59868
G1 X38.476 Y90.242 E29.67874
G1 X37.347 Y90.978 E29.74642
G1 X37.288 Y91.120 E29.75412
G1 X36.727 Y92.029 E29.80772
G1 X35.568 Y93.195 E29.89024
G1 X34.362 Y93.876 E29.95976
G1 X34.192 Y93.576 F7800.000
G1 F1800
G1 X34.015 Y93.676 E29.96998
G1 X32.523 Y94.030 E30.04694
G1 X25.473 Y94.022 E30.40078
G1 X24.107 Y94.035 E30.46930
G1 X23.823 Y94.009 E30.48363
G1 X23.062 Y94.013 E30.52183
G1 X22.549 Y93.916 E30.54804
G1 X21.623 Y94.497 E30.60288
G1 X19.898 Y95.011 E30.69323
G1 X18.133 Y94.974 E30.78185
G1 X17.004 Y94.643 E30.84090
G1 X15.986 Y94.103 E30.89873
G1 X5.740 Y83.968 E31.62198
G1 X4.643 Y81.856 E31.74139
G1 X4.508 Y80.985 E31.78566
G1 X4.480 Y79.917 E31.83929
G1 X4.945 Y78.090 E31.93387
G1 X5.723 Y76.827 E32.00831
G1 X6.491 Y76.040 E32.06349
G1 X6.491 Y64.829 E32.62615
G1 X6.810 Y63.458 E32.69680
G1 X7.426 Y62.288 E32.76313
G1 X8.652 Y61.033 E32.85119
G1 X9.723 Y60.439 E32.91262
G1 X9.856 Y60.105 E32.93067
G1 X10.404 Y59.267 E32.98091
G1 X11.337 Y58.337 E33.04702
G1 X12.328 Y57.702 E33.10612
G1 X13.239 Y57.400 E33.15429
G1 X14.140 Y56.104 E33.23351
G1 X15.109 Y55.260 E33.29799
G1 X15.903 Y54.842 E33.34302
G1 X16.036 Y54.510 E33.36095
G1 X16.811 Y53.368 E33.43019
G1 X17.867 Y52.426 E33.50123
G1 X18.662 Y52.006 E33.54637
G1 X18.796 Y51.673 E33.56440
G1 X19.659 Y50.433 E33.64021
G1 X20.628 Y49.589 E33.70469
G1 X21.421 Y49.171 E33.74972
G1 X21.556 Y48.837 E33.76775
G1 X22.418 Y47.597 E33.84356
G1 X23.387 Y46.753 E33.90804
G1 X24.181 Y46.335 E33.95307
G1 X24.315 Y46.002 E33.97110
G1 X25.177 Y44.761 E34.04691
G1 X26.146 Y43.918 E34.11139
G1 X26.929 Y43.504 E34.15583
G1 X27.019 Y43.280 E34.16796
G1 X27.784 Y42.098 E34.23864
G1 X28.864 Y41.110 E34.31206
G1 X29.658 Y40.699 E34.35696
G1 X30.338 Y39.516 E34.42543
G1 X31.405 Y38.435 E34.50169
G1 X32.441 Y37.853 E34.56131
G1 X32.536 Y37.603 E34.57474
G1 X33.027 Y36.776 E34.62303
G1 X34.051 Y35.688 E34.69801
G1 X35.225 Y35.005 E34.76613
G1 X35.492 Y34.388 E34.79990
G1 X36.163 Y33.477 E34.85669
G1 X37.009 Y32.700 E34.91434
G1 X38.083 Y32.090 E34.97631
G1 X38.360 Y31.482 E35.00983
G1 X38.922 Y30.719 E35.05741
G1 X39.606 Y30.046 E35.10557
G1 X40.659 Y29.360 E35.16863
G1 X40.920 Y29.256 E35.18275
G1 X41.219 Y28.606 E35.21861
G1 X41.765 Y27.875 E35.26441
G1 X42.419 Y27.229 E35.31054
G1 X43.483 Y26.532 E35.37438
G1 X43.755 Y26.422 E35.38914
G1 X44.054 Y25.771 E35.42509
G1 X44.600 Y25.040 E35.47089
G1 X45.255 Y24.394 E35.51702
G1 X46.318 Y23.696 E35.58086
G1 X46.591 Y23.586 E35.59562
G1 X46.890 Y22.935 E35.63157
G1 X47.436 Y22.204 E35.67737
G1 X48.090 Y21.558 E35.72351
G1 X49.154 Y20.860 E35.78735
G1 X49.427 Y20.750 E35.80212
G1 X49.728 Y20.096 E35.83829
G1 X50.275 Y19.365 E35.88406
G1 X50.929 Y18.720 E35.93017
G1 X51.990 Y18.024 E35.99386
G1 X52.262 Y17.915 E36.00859
G1 X52.561 Y17.264 E36.04453
G1 X53.107 Y16.533 E36.09034
G1 X53.762 Y15.887 E36.13647
G1 X54.825 Y15.189 E36.20031
G1 X55.098 Y15.079 E36.21507
G1 X55.397 Y14.428 E36.25101
G1 X55.943 Y13.697 E36.29682
G1 X56.597 Y13.051 E36.34295
G1 X57.661 Y12.353 E36.40679
G1 X57.934 Y12.244 E36.42155
G1 X58.232 Y11.593 E36.45749
G1 X58.779 Y10.862 E36.50330
G1 X59.433 Y10.216 E36.54943
G1 X60.496 Y9.518 E36.61327
G1 X60.751 Y9.415 E36.62704
G1 X60.859 Y9.141 E36.64182
G1 X61.358 Y8.338 E36.68927
G1 X62.356 Y7.309 E36.76120
G1 X63.745 Y6.498 E36.84195
G1 X65.332 Y6.116 E36.92386
G1 X76.420 Y6.122 E37.48029
G1 X77.212 Y5.354 E37.53565
G1 X78.346 Y4.668 E37.60216
G1 X79.857 Y4.234 E37.68105
G1 X81.456 Y4.234 E37.76133
G1 X82.950 Y4.651 E37.83915
G1 X84.284 Y5.475 E37.91784
G1 X94.071 Y15.262 E38.61245
G1 X95.036 Y16.974 E38.71109
G1 X95.311 Y18.240 E38.77611
G1 X95.296 Y19.640 E38.84641
G1 X94.810 Y21.290 E38.93273
G1 X94.196 Y22.283 E38.99133
G1 X94.081 Y22.415 E39.00009
G1 X94.093 Y32.487 E39.50559
G1 X93.773 Y33.860 E39.57633
G1 X93.131 Y35.063 E39.64476
G1 X92.009 Y36.225 E39.72584
G1 X91.060 Y36.771 E39.78078
G1 X90.932 Y37.099 E39.79843
G1 X90.411 Y37.945 E39.84829
G1 X89.371 Y39.002 E39.92271
G1 X88.170 Y39.724 E39.99305
G1 X87.665 Y40.656 E40.04623
G1 X86.730 Y41.681 E40.11588
G1 X85.515 Y42.471 E40.18860
G1 X85.356 Y42.538 E40.19724
G1 X85.266 Y42.759 E40.20924
G1 X84.799 Y43.537 E40.25479
G1 X83.933 Y44.485 E40.31922
G1 X82.587 Y45.350 E40.39949
G1 X81.779 Y45.617 E40.44222
G1 X81.280 Y46.460 E40.49137
G1 X80.564 Y47.239 E40.54451
G1 X79.681 Y47.907 E40.60006
G1 X79.158 Y48.143 E40.62884
G1 X79.016 Y48.514 E40.64882
G1 X78.370 Y49.480 E40.70712
G1 X77.606 Y50.251 E40.76156
G1 X76.976 Y50.681 E40.79988
G1 X76.771 Y51.238 E40.82966
G1 X75.983 Y52.433 E40.90147
G1 X75.367 Y53.037 E40.94481
G1 X74.675 Y53.550 E40.98801
G1 X74.021 Y53.851 E41.02416
G1 X73.896 Y54.154 E41.04061
G1 X73.259 Y55.131 E41.09914
G1 X72.244 Y56.104 E41.16968
G1 X71.382 Y56.632 E41.22042
G1 X71.172 Y56.714 E41.23177
G1 X71.069 Y56.978 E41.24599
G1 X70.461 Y57.919 E41.30220
G1 X69.747 Y58.663 E41.35394
G1 X68.925 Y59.268 E41.40519
G1 X68.353 Y59.513 E41.43643
G1 X68.246 Y59.784 E41.45104
G1 X67.573 Y60.823 E41.51315
G1 X66.596 Y61.759 E41.58105
G1 X65.670 Y62.320 E41.63540
G1 X65.513 Y62.385 E41.64392
G1 X65.449 Y62.541 E41.65239
G1 X64.965 Y63.365 E41.70036
G1 X64.092 Y64.321 E41.76532
G1 X63.078 Y65.035 E41.82756
G1 X62.634 Y65.213 E41.85156
G1 X62.253 Y66.019 E41.89628
G1 X61.041 Y67.340 E41.98626
G1 X60.072 Y67.956 E42.04391
G1 X59.812 Y68.062 E42.05796
G1 X59.513 Y68.713 E42.09394
G1 X58.999 Y69.404 E42.13716
G1 X58.391 Y70.025 E42.18080
G1 X57.076 Y70.867 E42.25914
G1 X56.273 Y71.132 E42.30158
G1 X55.635 Y72.135 E42.36125
G1 X54.937 Y72.855 E42.41159
G1 X54.142 Y73.439 E42.46105
G1 X53.645 Y73.660 E42.48839
G1 X53.520 Y73.975 E42.50535
G1 X52.753 Y75.123 E42.57465
G1 X52.112 Y75.747 E42.61953
G1 X51.423 Y76.251 E42.66239
G1 X50.887 Y76.493 E42.69191
G1 X50.761 Y76.810 E42.70905
G1 X49.994 Y77.958 E42.77835
G1 X49.353 Y78.582 E42.82322
G1 X48.664 Y79.087 E42.86609
G1 X48.128 Y79.328 E42.89561
G1 X48.002 Y79.646 E42.91275
G1 X47.234 Y80.794 E42.98205
G1 X46.594 Y81.418 E43.02692
G1 X45.905 Y81.923 E43.06979
G1 X45.370 Y82.163 E43.09924
G1 X45.252 Y82.462 E43.11536
G1 X44.501 Y83.597 E43.18365
G1 X43.597 Y84.448 E43.24596
G1 X42.738 Y84.976 E43.29656
G1 X42.597 Y85.036 E43.30424
G1 X42.493 Y85.297 E43.31837
G1 X41.804 Y86.359 E43.38186
G1 X40.848 Y87.274 E43.44830
G1 X39.859 Y87.875 E43.50641
G1 X39.303 Y88.859 E43.56309
G1 X38.239 Y89.990 E43.64103
G1 X37.252 Y90.631 E43.70011
G1 X37.081 Y90.703 E43.70938
G1 X36.984 Y90.955 E43.72298
G1 X36.467 Y91.801 E43.77273
G1 X35.378 Y92.907 E43.85064
G1 X34.245 Y93.546 E43.91591
G1 X34.077 Y93.251 F7800.000
G1 F1800
G1 X33.911 Y93.346 E43.92549
G1 X32.463 Y93.690 E44.00018
G1 X25.471 Y93.677 E44.35107
G1 X24.113 Y93.691 E44.41923
G1 X23.839 Y93.664 E44.43306
G1 X23.078 Y93.668 E44.47125
G1 X22.480 Y93.550 E44.50185
G1 X21.500 Y94.175 E44.56014
G1 X19.877 Y94.666 E44.64527
G1 X18.206 Y94.636 E44.72911
G1 X17.149 Y94.329 E44.78434
G1 X16.170 Y93.810 E44.84000
G1 X6.002 Y83.742 E45.55811
G1 X4.980 Y81.775 E45.66935
G1 X4.852 Y80.965 E45.71053
G1 X4.826 Y79.932 E45.76236
G1 X5.272 Y78.203 E45.85201
G1 X6.005 Y77.026 E45.92156
G1 X6.836 Y76.182 E45.98101
G1 X6.836 Y64.849 E46.54976
G1 X7.141 Y63.558 E46.61632
G1 X7.691 Y62.511 E46.67567
G1 X8.881 Y61.293 E46.76115
G1 X10.000 Y60.681 E46.82514
G1 X10.156 Y60.278 E46.84685
G1 X10.682 Y59.471 E46.89520
G1 X11.566 Y58.595 E46.95763
G1 X12.494 Y58.005 E47.01284
G1 X13.506 Y57.676 E47.06624
G1 X13.575 Y57.521 E47.07473
G1 X14.383 Y56.349 E47.14619
G1 X15.320 Y55.534 E47.20852
G1 X16.179 Y55.087 E47.25711
G1 X16.333 Y54.687 E47.27867
G1 X17.084 Y53.580 E47.34576
G1 X18.079 Y52.699 E47.41248
G1 X18.938 Y52.252 E47.46109
G1 X19.093 Y51.851 E47.48267
G1 X19.902 Y50.678 E47.55415
G1 X20.838 Y49.863 E47.61647
G1 X21.697 Y49.416 E47.66507
G1 X21.852 Y49.015 E47.68665
