; generated by PrusaSlicer 2.0.0+linux64 on 2022-03-18 at 17:13:05

; 

; external perimeters extrusion width = 0.45mm
; perimeters extrusion width = 0.45mm
; infill extrusion width = 0.45mm
; solid infill extrusion width = 0.45mm
; top infill extrusion width = 0.40mm
; support material extrusion width = 0.40mm
; first layer extrusion width = 0.70mm

M201 X9000 Y9000 Z500 E10000 ; sets maximum accelerations, mm/sec^2
M203 X500 Y500 Z12 E120 ; sets maximum feedrates, mm/sec
M204 P1500 R1500 T1500 ; sets acceleration (P, T) and retract acceleration (R), mm/sec^2
M205 X10.00 Y10.00 Z0.20 E2.50 ; sets the jerk limits, mm/sec
M205 S0 T0 ; sets the minimum extruding and travel feed rate, mm/sec
M107
M104 S225 ; set temperature
G90                         ; Explicitly force absolute positioning in case it was not reset previously.
G28                         ; Home all axes.
G29                         ; Auto-level the bed.
; Filament gcode
M109 S225 ; set temperature and wait for it to be reached
G21 ; set units to millimeters
G90 ; use absolute coordinates
M82 ; use absolute distances for extrusion
G92 E0
G1 Z0.350 F7800.000
G1 E-2.00000 F2400.00000
G92 E0
G1 X37.574 Y35.197 F7800.000
G1 E2.00000 F2400.00000
G1 F1800
G1 X38.638 Y34.151 E2.13570
G1 X39.919 Y33.384 E2.27141
G1 X41.343 Y32.939 E2.40711
G1 X42.454 Y32.832 E2.50857
G1 X56.254 Y32.832 E3.76341
G1 X57.711 Y33.004 E3.89687
G1 X59.090 Y33.508 E4.03033
G1 X60.315 Y34.317 E4.16379
G1 X61.320 Y35.387 E4.29726
G1 X61.866 Y36.267 E4.39141
G1 X62.261 Y37.224 E4.48556
G1 X63.715 Y42.894 E5.01782
G1 X63.812 Y43.962 E5.11534
G1 X63.792 Y56.502 E6.25563
G1 X62.412 Y63.507 E6.90481
G1 X61.962 Y64.832 E7.03210
G1 X61.122 Y66.162 E7.17509
G1 X59.984 Y67.238 E7.31752
G1 X58.616 Y68.001 E7.45995
G1 X57.102 Y68.404 E7.60237
G1 X56.273 Y68.463 E7.67795
G1 X42.301 Y68.460 E8.94841
G1 X41.030 Y68.289 E9.06504
G1 X39.820 Y67.865 E9.18167
G1 X39.102 Y67.470 E9.25612
G1 X38.442 Y66.986 E9.33057
G1 X37.855 Y66.424 E9.40446
G1 X37.341 Y65.787 E9.47891
G1 X36.913 Y65.089 E9.55336
G1 X36.582 Y64.347 E9.62724
G1 X36.348 Y63.562 E9.70169
G1 X36.217 Y62.760 E9.77558
G1 X36.189 Y39.008 E11.93536
G1 X36.354 Y37.705 E12.05480
G1 X36.785 Y36.464 E12.17424
G1 X37.542 Y35.248 E12.30448
G1 E10.30448 F2400.00000
G92 E0
G1 X42.500 Y62.150 F7800.000
G1 E2.00000 F2400.00000
G1 F1800
G1 X42.500 Y58.216 E2.35774
G1 X42.523 Y58.310 E2.36654
G1 X42.815 Y58.537 E2.40017
G1 X43.398 Y58.537 E2.45315
G1 X43.712 Y58.223 E2.49363
G1 X43.712 Y41.777 E3.98899
G1 X43.398 Y41.463 E4.02948
G1 X42.815 Y41.463 E4.08245
G1 X42.523 Y41.690 E4.11609
G1 X42.500 Y41.784 E4.12488
G1 X42.500 Y39.145 E4.36488
G1 X43.750 Y39.145 E4.47852
G1 X43.750 Y61.869 E6.54483
G1 X45.000 Y61.869 E6.65847
G1 X45.000 Y39.145 E8.72478
G1 X46.249 Y39.145 E8.83843
G1 X46.249 Y61.869 E10.90474
G1 X47.499 Y61.869 E11.01838
G1 X47.499 Y39.145 E13.08469
G1 X48.749 Y39.145 E13.19833
G1 X48.749 Y61.869 E15.26464
G1 X49.999 Y61.869 E15.37828
G1 X49.999 Y39.145 E17.44459
G1 X51.248 Y39.145 E17.55823
G1 X51.248 Y61.869 E19.62454
G1 X52.498 Y61.869 E19.73819
G1 X52.498 Y39.145 E21.80450
G1 X53.748 Y39.145 E21.91814
G1 X53.748 Y61.869 E23.98445
G1 X54.998 Y61.869 E24.09809
G1 X54.998 Y39.145 E26.16440
G1 X56.248 Y39.145 E26.27804
G1 X56.248 Y62.150 E28.36992
G1 E26.36992 F2400.00000
G92 E0
G1 X56.911 Y42.000 F7800.000
G1 E2.00000 F2400.00000
G1 F1800
G1 X56.985 Y42.600 E2.02141
G1 X57.059 Y43.200 E2.05517
G1 X57.133 Y43.800 E2.10129
G1 X57.157 Y44.000 E2.12079
G1 X57.133 Y44.198 E2.14007
G1 X57.109 Y44.396 E2.15794
G1 X57.084 Y44.594 E2.17440
G1 X57.060 Y44.791 E2.18944
G1 X57.036 Y44.989 E2.20307
G1 X57.011 Y45.187 E2.21529
G1 X56.987 Y45.385 E2.22609
G1 X56.963 Y45.583 E2.23548
G1 X56.938 Y45.781 E2.24346
G1 X56.914 Y45.978 E2.25003
G1 X56.963 Y46.417 E2.26144
G1 X57.036 Y47.011 E2.28962
G1 X57.109 Y47.604 E2.33051
G1 X57.157 Y48.000 E2.36625
G1 X57.133 Y48.198 E2.38412
G1 X57.109 Y48.396 E2.40199
G1 X57.084 Y48.594 E2.41845
G1 X57.060 Y48.791 E2.43349
G1 X57.036 Y48.989 E2.44712
G1 X57.011 Y49.187 E2.45934
G1 X56.987 Y49.385 E2.47014
G1 X56.963 Y49.583 E2.47954
G1 X56.938 Y49.781 E2.48751
G1 X56.914 Y49.978 E2.49408
G1 X56.963 Y50.417 E2.50549
G1 X57.036 Y51.011 E2.53367
G1 X57.109 Y51.604 E2.57456
G1 X57.157 Y52.000 E2.61030
G1 X57.133 Y52.198 E2.62817
G1 X57.109 Y52.396 E2.64604
G1 X57.084 Y52.594 E2.66250
G1 X57.060 Y52.791 E2.67754
G1 X57.036 Y52.989 E2.69117
G1 X57.011 Y53.187 E2.70339
G1 X56.987 Y53.385 E2.71419
G1 X56.963 Y53.583 E2.72359
G1 X56.938 Y53.781 E2.73156
G1 X56.914 Y53.978 E2.73813
G1 X56.963 Y54.417 E2.74954
G1 X57.036 Y55.011 E2.77772
G1 X57.109 Y55.604 E2.81861
G1 X57.157 Y56.000 E2.85435
G1 X57.133 Y56.200 E2.87241
G1 X57.108 Y56.400 E2.89053
G1 X57.084 Y56.600 E2.90728
G1 X57.059 Y56.800 E2.92265
G1 X57.034 Y57.000 E2.93666
G1 X57.010 Y57.200 E2.94928
G1 X56.985 Y57.400 E2.96054
G1 X56.960 Y57.600 E2.97042
G1 X56.936 Y57.800 E2.97893
G1 X56.911 Y58.000 E2.98607
G1 E0.98607 F2400.00000
G92 E0
G1 X43.089 Y58.000 F7800.000
G1 E2.00000 F2400.00000
G1 F1800
G1 X43.015 Y57.400 E2.02141
G1 X42.941 Y56.800 E2.05517
G1 X42.867 Y56.200 E2.10129
G1 X42.843 Y56.000 E2.12079
G1 X42.867 Y55.802 E2.14007
G1 X42.891 Y55.604 E2.15794
G1 X42.916 Y55.406 E2.17440
G1 X42.940 Y55.209 E2.18944
G1 X42.964 Y55.011 E2.20307
G1 X42.989 Y54.813 E2.21529
G1 X43.013 Y54.615 E2.22609
G1 X43.037 Y54.417 E2.23549
G1 X43.062 Y54.219 E2.24346
G1 X43.086 Y54.022 E2.25003
G1 X43.037 Y53.583 E2.26144
G1 X42.964 Y52.989 E2.28962
G1 X42.891 Y52.396 E2.33051
G1 X42.843 Y52.000 E2.36625
G1 X42.867 Y51.802 E2.38412
G1 X42.891 Y51.604 E2.40199
G1 X42.916 Y51.406 E2.41845
G1 X42.940 Y51.209 E2.43349
G1 X42.964 Y51.011 E2.44712
G1 X42.989 Y50.813 E2.45934
G1 X43.013 Y50.615 E2.47014
G1 X43.037 Y50.417 E2.47954
G1 X43.062 Y50.219 E2.48751
G1 X43.086 Y50.022 E2.49408
G1 X43.037 Y49.583 E2.50549
G1 X42.964 Y48.989 E2.53367
G1 X42.891 Y48.396 E2.57456
G1 X42.843 Y48.000 E2.61030
G1 X42.867 Y47.802 E2.62817
G1 X42.891 Y47.604 E2.64604
G1 X42.916 Y47.406 E2.66250
G1 X42.940 Y47.209 E2.67754
G1 X42.964 Y47.011 E2.69117
G1 X42.989 Y46.813 E2.70339
G1 X43.013 Y46.615 E2.71419
G1 X43.037 Y46.417 E2.72359
G1 X43.062 Y46.219 E2.73156
G1 X43.086 Y46.022 E2.73813
G1 X43.037 Y45.583 E2.74954
G1 X42.964 Y44.989 E2.77772
G1 X42.891 Y44.396 E2.81861
G1 X42.843 Y44.000 E2.85435
G1 X42.867 Y43.800 E2.87241
G1 X42.892 Y43.600 E2.89053
G1 X42.916 Y43.400 E2.90728
G1 X42.941 Y43.200 E2.92265
G1 X42.966 Y43.000 E2.93666
G1 X42.990 Y42.800 E2.94928
G1 X43.015 Y42.600 E2.96054
G1 X43.040 Y42.400 E2.97042
G1 X43.064 Y42.200 E2.97893
G1 X43.089 Y42.000 E2.98607
G1 Z0.650 F7800.000
G1 E0.98607 F2400.00000
G92 E0
G1 X53.659 Y44.836 F7800.000
G1 E2.00000 F2400.00000
G1 F3600
G1 X45.670 Y44.836 E2.33444
G1 X45.670 Y47.671 E2.45314
G1 X53.508 Y47.671 E2.78126
G1 X53.508 Y50.507 E2.89996
G1 X45.670 Y50.507 E3.22808
G1 X45.670 Y53.342 E3.34678
G1 X53.508 Y53.342 E3.67489
G1 X53.508 Y56.178 E3.79359
G1 X45.519 Y56.178 E4.12804
G1 X53.810 Y58.982 F7800.000
G1 F3600
G1 X53.810 Y42.032 E4.83754
G1 X45.368 Y42.032 E5.19095
G1 X45.368 Y58.982 E5.90045
G1 X53.810 Y58.982 E6.25386
G1 E4.25386 F2400.00000
G92 E0
G1 X43.275 Y55.806 F7800.000
G1 E2.00000 F2400.00000
G1 F900
G1 X43.275 Y57.335 E2.07354
G1 X43.072 Y57.360 E2.08338
G1 X42.732 Y56.000 E2.15080
G1 X43.072 Y54.640 E2.21822
G1 X43.275 Y54.665 E2.22806
G1 X43.275 Y55.746 E2.28005
G1 X42.941 Y56.026 F7800.000
G1 E0.28005 F2400.00000
G92 E0
G1 X42.790 Y51.768 F7800.000
G1 E2.00000 F2400.00000
G1 F900
G1 X43.072 Y50.640 E2.05593
G1 X43.275 Y50.665 E2.06578
G1 X43.275 Y53.335 E2.19418
G1 X43.072 Y53.360 E2.20403
G1 X42.732 Y52.000 E2.27145
G1 X42.775 Y51.827 E2.28005
G1 X43.155 Y51.606 F7800.000
G1 E0.28005 F2400.00000
G92 E0
G1 X43.275 Y47.816 F7800.000
G1 E2.00000 F2400.00000
G1 F900
G1 X43.275 Y49.335 E2.07304
G1 X43.072 Y49.360 E2.08288
G1 X42.732 Y48.000 E2.15030
G1 X43.072 Y46.640 E2.21772
G1 X43.275 Y46.665 E2.22756
G1 X43.275 Y47.756 E2.28005
G1 X42.941 Y48.036 F7800.000
G1 E0.28005 F2400.00000
G92 E0
G1 X43.275 Y43.878 F7800.000
G1 E2.00000 F2400.00000
G1 F900
G1 X43.275 Y45.335 E2.07005
G1 X43.072 Y45.360 E2.07989
G1 X42.732 Y44.000 E2.14731
G1 X43.072 Y42.640 E2.21473
G1 X43.275 Y42.665 E2.22457
G1 X43.275 Y43.818 E2.28005
G1 X42.940 Y44.097 F7800.000
G1 X43.033 Y43.793
G1 F1200
G1 X43.058 Y43.586 E2.28269
G1 X43.033 Y43.793 F7800.000
G1 F1200
G1 X43.008 Y44.000 E2.28533
G1 X43.058 Y44.414 E2.29061
G1 X43.058 Y47.586 F7800.000
G1 F1200
G1 X43.033 Y47.793 E2.29325
G1 X43.008 Y48.000 E2.29589
G1 X43.058 Y48.414 E2.30117
G1 X43.058 Y51.586 F7800.000
G1 F1200
G1 X43.033 Y51.793 E2.30381
G1 X43.008 Y52.000 E2.30645
G1 X43.058 Y52.414 E2.31173
G1 X43.058 Y55.586 F7800.000
G1 F1200
G1 X43.033 Y55.793 E2.31437
G1 X43.008 Y56.000 E2.31701
G1 X43.058 Y56.414 E2.32229
G1 E0.32229 F2400.00000
G92 E0
G1 X56.725 Y55.664 F7800.000
G1 E2.00000 F2400.00000
G1 F900
G1 X56.725 Y54.665 E2.04805
G1 X56.928 Y54.640 E2.05789
G1 X57.268 Y56.000 E2.12531
G1 X56.928 Y57.360 E2.19273
G1 X56.725 Y57.335 E2.20257
G1 X56.725 Y55.724 E2.28005
G1 X57.063 Y55.450 F7800.000
G1 E0.28005 F2400.00000
G92 E0
G1 X56.725 Y52.052 F7800.000
G1 E2.00000 F2400.00000
G1 F900
G1 X56.725 Y50.665 E2.06672
G1 X56.928 Y50.640 E2.07657
G1 X57.268 Y52.000 E2.14399
G1 X56.928 Y53.360 E2.21141
G1 X56.725 Y53.335 E2.22125
G1 X56.725 Y52.112 E2.28005
G1 X57.061 Y51.835 F7800.000
G1 E0.28005 F2400.00000
G92 E0
G1 X57.265 Y47.988 F7800.000
G1 E2.00000 F2400.00000
G1 F900
G1 X56.928 Y49.360 E2.06797
G1 X56.725 Y49.335 E2.07781
G1 X56.725 Y46.665 E2.20622
G1 X56.928 Y46.640 E2.21606
G1 X57.250 Y47.929 E2.27997
G1 X56.912 Y48.177 F7800.000
G1 E0.27997 F2400.00000
G92 E0
G1 X57.212 Y43.775 F7800.000
G1 E2.00000 F2400.00000
G1 F900
G1 X57.268 Y44.000 E2.01117
G1 X56.928 Y45.360 E2.07859
G1 X56.725 Y45.335 E2.08843
G1 X56.725 Y42.665 E2.21684
G1 X56.928 Y42.640 E2.22668
G1 X57.197 Y43.717 E2.28005
G1 X57.054 Y43.945 F7800.000
G1 X56.942 Y43.586
G1 F1200
G1 X56.992 Y44.000 E2.28533
G1 X56.967 Y44.207 E2.28797
G1 X56.942 Y44.414 E2.29061
G1 X56.942 Y47.586 F7800.000
G1 F1200
G1 X56.992 Y48.000 E2.29589
G1 X56.967 Y48.207 E2.29853
G1 X56.942 Y48.414 E2.30117
G1 X56.942 Y51.586 F7800.000
G1 F1200
G1 X56.992 Y52.000 E2.30645
G1 X56.967 Y52.207 E2.30909
G1 X56.942 Y52.414 E2.31173
G1 X56.942 Y55.586 F7800.000
G1 F1200
G1 X56.992 Y56.000 E2.31701
G1 X56.967 Y56.207 E2.31965
G1 X56.942 Y56.414 E2.32229
G1 Z0.950 F7800.000
G1 E0.32229 F2400.00000
G92 E0
G1 X53.810 Y58.982 F7800.000
G1 E2.00000 F2400.00000
G1 F3600
G1 X53.810 Y42.032 E2.70951
G1 X45.368 Y42.032 E3.06291
G1 X45.368 Y58.982 E3.77242
G1 X53.810 Y58.982 E4.12583
G1 X45.519 Y56.178 F7800.000
G1 F3600
G1 X53.508 Y56.178 E4.46027
G1 X53.508 Y53.342 E4.57897
G1 X45.670 Y53.342 E4.90708
G1 X45.670 Y50.507 E5.02578
G1 X53.508 Y50.507 E5.35390
G1 X53.508 Y47.671 E5.47260
G1 X45.670 Y47.671 E5.80072
G1 X45.670 Y44.836 E5.91942
G1 X53.659 Y44.836 E6.25386
G1 E4.25386 F2400.00000
G92 E0
G1 X43.575 Y50.131 F7800.000
G1 E2.00000 F2400.00000
G1 F900
G1 X43.575 Y57.775 E2.36767
G1 X43.176 Y57.775 E2.38688
G1 X42.732 Y56.000 E2.47488
G1 X43.232 Y54.000 E2.57403
G1 X42.732 Y52.000 E2.67318
G1 X43.232 Y50.000 E2.77234
G1 X42.732 Y48.000 E2.87149
G1 X43.232 Y46.000 E2.97064
G1 X42.732 Y44.000 E3.06980
G1 X43.176 Y42.225 E3.15780
G1 X43.575 Y42.225 E3.17700
G1 X43.575 Y50.071 E3.55435
G1 X43.232 Y50.336 F7800.000
G1 X43.358 Y50.386
G1 F1200
G1 X43.334 Y50.588 E3.55695
G1 X43.309 Y50.790 E3.56080
G1 X43.284 Y50.992 E3.56588
G1 X43.259 Y51.193 E3.57220
G1 X43.234 Y51.395 E3.57976
G1 X43.210 Y51.597 E3.58855
G1 X43.185 Y51.798 E3.59859
G1 X43.160 Y52.000 E3.60862
G1 X43.210 Y52.403 E3.62869
G1 X43.284 Y53.008 E3.64765
G1 X43.358 Y53.614 E3.65547
G1 X43.358 Y54.386 F7800.000
G1 F1200
G1 X43.334 Y54.588 E3.65807
G1 X43.309 Y54.790 E3.66192
G1 X43.284 Y54.992 E3.66700
G1 X43.259 Y55.193 E3.67332
G1 X43.234 Y55.395 E3.68088
G1 X43.210 Y55.597 E3.68967
G1 X43.185 Y55.798 E3.69970
G1 X43.160 Y56.000 E3.70977
G1 X43.209 Y56.396 E3.72950
G1 X43.282 Y56.989 E3.74842
G1 X43.355 Y57.582 E3.75666
G1 X43.358 Y49.614 F7800.000
G1 F1200
G1 X43.284 Y49.008 E3.76448
G1 X43.210 Y48.403 E3.78344
G1 X43.160 Y48.000 E3.80351
G1 X43.185 Y47.798 E3.81354
G1 X43.210 Y47.597 E3.82358
G1 X43.234 Y47.395 E3.83237
G1 X43.259 Y47.193 E3.83993
G1 X43.284 Y46.992 E3.84625
G1 X43.309 Y46.790 E3.85133
G1 X43.334 Y46.588 E3.85518
G1 X43.358 Y46.386 E3.85778
G1 X43.358 Y45.614 F7800.000
G1 F1200
G1 X43.284 Y45.008 E3.86560
G1 X43.210 Y44.403 E3.88456
G1 X43.160 Y44.000 E3.90463
G1 X43.184 Y43.802 E3.91447
G1 X43.209 Y43.604 E3.92433
G1 X43.233 Y43.407 E3.93301
G1 X43.257 Y43.209 E3.94050
G1 X43.282 Y43.011 E3.94681
G1 X43.306 Y42.813 E3.95193
G1 X43.330 Y42.616 E3.95587
G1 X43.355 Y42.418 E3.95862
G1 E1.95862 F2400.00000
G92 E0
G1 X56.894 Y49.495 F7800.000
G1 E2.00000 F2400.00000
G1 F900
G1 X56.768 Y50.000 E2.02501
G1 X57.268 Y52.000 E2.12417
G1 X56.768 Y54.000 E2.22332
G1 X57.268 Y56.000 E2.32247
G1 X56.824 Y57.775 E2.41047
G1 X56.425 Y57.775 E2.42968
G1 X56.425 Y42.225 E3.17758
G1 X56.824 Y42.225 E3.19679
G1 X57.268 Y44.000 E3.28479
G1 X56.768 Y46.000 E3.38394
G1 X57.268 Y48.000 E3.48309
G1 X56.909 Y49.437 E3.55435
G1 X56.522 Y49.641 F7800.000
G1 X56.642 Y49.614
G1 F1200
G1 X56.716 Y49.008 E3.56217
G1 X56.790 Y48.403 E3.58113
G1 X56.840 Y48.000 E3.60119
G1 X56.815 Y47.798 E3.61123
G1 X56.790 Y47.597 E3.62126
G1 X56.766 Y47.395 E3.63006
G1 X56.741 Y47.193 E3.63761
G1 X56.716 Y46.992 E3.64393
G1 X56.691 Y46.790 E3.64902
G1 X56.666 Y46.588 E3.65286
G1 X56.642 Y46.386 E3.65547
G1 X56.642 Y45.614 F7800.000
G1 F1200
G1 X56.666 Y45.412 E3.65807
G1 X56.691 Y45.210 E3.66192
G1 X56.716 Y45.008 E3.66700
G1 X56.741 Y44.807 E3.67332
G1 X56.766 Y44.605 E3.68088
G1 X56.790 Y44.403 E3.68967
G1 X56.815 Y44.202 E3.69971
G1 X56.840 Y44.000 E3.70977
G1 X56.791 Y43.604 E3.72950
G1 X56.718 Y43.011 E3.74842
G1 X56.645 Y42.418 E3.75667
G1 X56.642 Y50.386 F7800.000
G1 F1200
G1 X56.716 Y50.992 E3.76448
G1 X56.790 Y51.597 E3.78344
G1 X56.840 Y52.000 E3.80351
G1 X56.815 Y52.202 E3.81354
G1 X56.790 Y52.403 E3.82358
G1 X56.766 Y52.605 E3.83237
G1 X56.741 Y52.807 E3.83993
G1 X56.716 Y53.008 E3.84625
G1 X56.691 Y53.210 E3.85133
G1 X56.666 Y53.412 E3.85518
G1 X56.642 Y53.614 E3.85778
G1 X56.642 Y54.386 F7800.000
G1 F1200
G1 X56.666 Y54.588 E3.86039
G1 X56.691 Y54.790 E3.86423
G1 X56.716 Y54.992 E3.86932
G1 X56.741 Y55.193 E3.87564
G1 X56.766 Y55.395 E3.88319
G1 X56.790 Y55.597 E3.89199
G1 X56.815 Y55.798 E3.90202
G1 X56.840 Y56.000 E3.91208
G1 X56.791 Y56.396 E3.93182
G1 X56.718 Y56.989 E3.95074
G1 X56.645 Y57.582 E3.95898
M106 S242.25
G1 Z1.250 F7800.000
G1 E1.95898 F2400.00000
G92 E0
G1 X53.810 Y58.982 F7800.000
G1 E2.00000 F2400.00000
G1 F3600
G1 X53.810 Y42.032 E2.70951
G1 X45.368 Y42.032 E3.06291
G1 X45.368 Y58.982 E3.77242
G1 X53.810 Y58.982 E4.12583
G1 X45.519 Y56.178 F7800.000
G1 F3600
G1 X53.508 Y56.178 E4.46027
G1 X53.508 Y53.342 E4.57897
G1 X45.670 Y53.342 E4.90709
G1 X45.670 Y50.507 E5.02579
G1 X53.508 Y50.507 E5.35391
G1 X53.508 Y47.671 E5.47261
G1 X45.670 Y47.671 E5.80073
G1 X45.670 Y44.836 E5.91943
G1 X53.659 Y44.836 E6.25387
G1 E4.25387 F2400.00000
G92 E0
G1 X43.489 Y56.122 F7800.000
G1 E2.00000 F2400.00000
G1 F900
G1 X43.489 Y56.602 E2.02312
G1 X43.286 Y56.627 E2.03296
G1 X43.129 Y56.000 E2.06407
G1 X43.286 Y55.373 E2.09518
G1 X43.489 Y55.398 E2.10502
G1 X43.489 Y56.062 E2.13697
G1 X43.158 Y51.884 F7800.000
G1 F900
G1 X43.286 Y51.373 E2.16232
G1 X43.489 Y51.398 E2.17216
G1 X43.489 Y52.602 E2.23011
G1 X43.286 Y52.627 E2.23996
G1 X43.129 Y52.000 E2.27106
G1 X43.144 Y51.942 E2.27394
G1 X43.489 Y47.855 F7800.000
G1 F900
G1 X43.489 Y48.602 E2.30990
G1 X43.286 Y48.627 E2.31974
G1 X43.129 Y48.000 E2.35085
G1 X43.286 Y47.373 E2.38196
G1 X43.489 Y47.398 E2.39180
G1 X43.489 Y47.795 E2.41091
G1 X43.137 Y44.030 F7800.000
G1 F900
G1 X43.129 Y44.000 E2.41241
G1 X43.286 Y43.373 E2.44352
G1 X43.489 Y43.398 E2.45336
G1 X43.489 Y44.602 E2.51132
G1 X43.286 Y44.627 E2.52116
G1 X43.152 Y44.089 E2.54788
