; generated by PrusaSlicer 2.0.0+linux64 on 2022-03-19 at 11:38:25

; 

; external perimeters extrusion width = 0.45mm
; perimeters extrusion width = 0.45mm
; infill extrusion width = 0.45mm
; solid infill extrusion width = 0.45mm
; top infill extrusion width = 0.40mm
; support material extrusion width = 0.40mm
; first layer extrusion width = 0.70mm

M201 X9000 Y9000 Z500 E10000 ; sets maximum accelerations, mm/sec^2
M203 X500 Y500 Z12 E120 ; sets maximum feedrates, mm/sec
M204 P1500 R1500 T1500 ; sets acceleration (P, T) and retract acceleration (R), mm/sec^2
M205 X10.00 Y10.00 Z0.20 E2.50 ; sets the jerk limits, mm/sec
M205 S0 T0 ; sets the minimum extruding and travel feed rate, mm/sec
M107
M104 S225 ; set temperature
G90                         ; Explicitly force absolute positioning in case it was not reset previously.
G28                         ; Home all axes.
G29                         ; Auto-level the bed.
; Filament gcode
M109 S225 ; set temperature and wait for it to be reached
G21 ; set units to millimeters
G90 ; use absolute coordinates
M82 ; use absolute distances for extrusion
G92 E0
G1 Z0.350 F7800.000
G1 E-2.00000 F2400.00000
G92 E0
G1 X37.245 Y34.441 F7800.000
G1 E2.00000 F2400.00000
G1 F1800
G1 X38.089 Y33.720 E2.10090
G1 X39.046 Y33.159 E2.20180
G1 X40.086 Y32.774 E2.30270
G1 X41.178 Y32.577 E2.40360
G1 X58.002 Y32.551 E3.93334
G1 X59.332 Y32.694 E4.05502
G1 X60.603 Y33.115 E4.17671
G1 X61.756 Y33.793 E4.29839
G1 X62.744 Y34.705 E4.42064
G1 X72.217 Y48.446 E5.93828
G1 X72.754 Y49.404 E6.03806
G1 X73.131 Y50.499 E6.14345
G1 X73.302 Y51.640 E6.24829
G1 X73.283 Y58.607 E6.88186
G1 X73.090 Y59.662 E6.97939
G1 X72.720 Y60.669 E7.07691
G1 X72.186 Y61.599 E7.17444
G1 X71.502 Y62.425 E7.27196
G1 X70.718 Y63.101 E7.36611
G1 X69.834 Y63.641 E7.46027
G1 X60.576 Y67.911 E8.38735
G1 X59.321 Y68.322 E8.50735
G1 X58.009 Y68.463 E8.62735
G1 X41.705 Y68.462 E10.10989
G1 X40.497 Y68.337 E10.22034
G1 X39.136 Y67.896 E10.35044
G1 X30.227 Y63.671 E11.24698
G1 X29.358 Y63.156 E11.33888
G1 X28.577 Y62.504 E11.43134
G1 X27.893 Y61.710 E11.52661
G1 X27.347 Y60.809 E11.62245
G1 X26.960 Y59.835 E11.71773
G1 X26.740 Y58.811 E11.81300
G1 X26.690 Y51.832 E12.44756
G1 X26.771 Y50.974 E12.52595
G1 X26.969 Y50.135 E12.60434
G1 X27.288 Y49.314 E12.68442
G1 X27.717 Y48.545 E12.76450
G1 X36.519 Y35.328 E14.20839
G1 X37.207 Y34.487 E14.30720
G1 X38.178 Y35.517 F7800.000
G1 F1800
G1 X38.822 Y34.910 E14.38764
G1 X39.393 Y34.580 E14.44770
G1 X40.215 Y34.278 E14.52726
G1 X40.886 Y34.177 E14.58900
G1 X42.264 Y34.177 E14.71433
G1 X42.546 Y34.145 E14.74010
G1 X47.195 Y34.146 E15.16282
G1 X47.372 Y34.164 E15.17905
G1 X47.550 Y34.145 E15.19532
G1 X49.694 Y34.145 E15.39024
G1 X49.872 Y34.164 E15.40651
G1 X50.050 Y34.145 E15.42277
G1 X52.194 Y34.145 E15.61770
G1 X52.372 Y34.164 E15.63396
G1 X52.550 Y34.145 E15.65023
G1 X54.693 Y34.145 E15.84515
G1 X54.871 Y34.164 E15.86142
G1 X55.049 Y34.145 E15.87769
G1 X57.205 Y34.145 E16.07372
G1 X57.481 Y34.177 E16.09896
G1 X58.998 Y34.189 E16.23697
G1 X59.844 Y34.371 E16.31558
G1 X60.578 Y34.697 E16.38867
G1 X61.235 Y35.161 E16.46178
G1 X62.126 Y36.075 E16.57782
G1 X62.498 Y36.634 E16.63893
G1 X62.796 Y37.316 E16.70656
G1 X62.981 Y38.149 E16.78418
G1 X62.995 Y45.390 E17.44259
G1 X63.260 Y45.735 E17.48219
G1 X64.354 Y46.571 E17.60736
G1 X65.627 Y47.096 E17.73252
G1 X68.212 Y47.440 E17.96968
G1 X68.847 Y47.638 E18.03019
G1 X69.457 Y47.950 E18.09249
G1 X70.178 Y48.517 E18.17590
G1 X70.863 Y49.296 E18.27018
G1 X71.248 Y49.908 E18.33592
G1 X71.523 Y50.589 E18.40273
G1 X71.687 Y51.482 E18.48533
G1 X71.667 Y58.760 E19.14704
G1 X71.492 Y59.537 E19.21949
G1 X71.166 Y60.270 E19.29245
G1 X70.702 Y60.927 E19.36555
G1 X69.789 Y61.818 E19.48159
G1 X69.229 Y62.190 E19.54270
G1 X68.546 Y62.488 E19.61046
G1 X67.781 Y62.665 E19.68188
G1 X63.027 Y62.683 E20.11418
G1 X62.819 Y63.626 E20.20196
G1 X62.520 Y64.339 E20.27227
G1 X62.111 Y64.957 E20.33969
G1 X61.169 Y65.909 E20.46147
G1 X60.507 Y66.356 E20.53410
G1 X59.849 Y66.641 E20.59929
G1 X59.147 Y66.808 E20.66488
G1 X57.486 Y66.836 E20.81596
G1 X57.205 Y66.868 E20.84167
G1 X55.037 Y66.868 E21.03881
G1 X54.761 Y66.837 E21.06405
G1 X53.731 Y66.837 E21.15768
G1 X53.456 Y66.868 E21.18291
G1 X51.300 Y66.868 E21.37895
G1 X51.122 Y66.850 E21.39521
G1 X50.944 Y66.868 E21.41148
G1 X48.800 Y66.868 E21.60640
G1 X48.622 Y66.850 E21.62267
G1 X48.444 Y66.868 E21.63894
G1 X46.301 Y66.868 E21.83386
G1 X46.123 Y66.850 E21.85013
G1 X45.945 Y66.868 E21.86639
G1 X43.789 Y66.868 E22.06243
G1 X43.509 Y66.836 E22.08808
G1 X40.717 Y66.823 E22.34194
G1 X39.944 Y66.656 E22.41381
G1 X39.314 Y66.396 E22.47576
G1 X38.763 Y66.059 E22.53449
G1 X37.698 Y65.034 E22.66895
G1 X37.240 Y64.368 E22.74245
G1 X36.926 Y63.631 E22.81533
G1 X36.719 Y62.686 E22.90329
G1 X32.368 Y62.681 E23.29894
G1 X31.581 Y62.529 E23.37181
G1 X30.840 Y62.227 E23.44462
G1 X30.177 Y61.789 E23.51685
G1 X29.295 Y60.923 E23.62921
G1 X28.852 Y60.307 E23.69818
G1 X28.516 Y59.560 E23.77266
G1 X28.313 Y58.568 E23.86474
G1 X28.313 Y51.482 E24.50909
G1 X28.487 Y50.561 E24.59432
G1 X28.831 Y49.755 E24.67396
G1 X29.151 Y49.280 E24.72608
G1 X29.957 Y48.388 E24.83538
G1 X30.497 Y47.979 E24.89695
G1 X31.095 Y47.663 E24.95848
G1 X31.884 Y47.420 E25.03352
G1 X34.365 Y47.093 E25.26106
G1 X35.636 Y46.566 E25.38623
G1 X36.749 Y45.713 E25.51376
G1 X36.754 Y38.243 E26.19297
G1 X36.901 Y37.465 E26.26495
G1 X37.173 Y36.774 E26.33246
G1 X37.737 Y35.933 E26.42458
G1 X38.134 Y35.559 E26.47422
G1 X38.563 Y36.009 F7800.000
G1 F1800
G1 X39.171 Y35.430 E26.55051
G1 X39.636 Y35.156 E26.59962
G1 X40.399 Y34.876 E26.67351
G1 X40.908 Y34.802 E26.72026
G1 X42.303 Y34.802 E26.84715
G1 X42.565 Y34.770 E26.87109
G1 X44.748 Y34.777 E27.06959
G1 X44.886 Y34.791 E27.08224
G1 X45.071 Y34.770 E27.09919
G1 X47.174 Y34.770 E27.29043
G1 X47.372 Y34.793 E27.30856
G1 X47.571 Y34.770 E27.32669
G1 X49.674 Y34.770 E27.51795
G1 X49.872 Y34.793 E27.53609
G1 X50.070 Y34.770 E27.55422
G1 X52.173 Y34.770 E27.74548
G1 X52.372 Y34.793 E27.76361
G1 X52.570 Y34.770 E27.78175
G1 X54.673 Y34.770 E27.97301
G1 X54.871 Y34.793 E27.99114
G1 X55.069 Y34.770 E28.00927
G1 X57.185 Y34.770 E28.20163
G1 X57.441 Y34.802 E28.22509
G1 X58.904 Y34.808 E28.35814
G1 X59.626 Y34.957 E28.42518
G1 X60.248 Y35.229 E28.48691
G1 X60.809 Y35.619 E28.54906
G1 X61.657 Y36.488 E28.65944
G1 X61.959 Y36.951 E28.70973
G1 X62.210 Y37.536 E28.76755
G1 X62.356 Y38.185 E28.82809
G1 X62.370 Y45.603 E29.50263
G1 X62.815 Y46.182 E29.56899
G1 X64.040 Y47.118 E29.70912
G1 X65.464 Y47.705 E29.84922
G1 X68.052 Y48.045 E30.08654
G1 X68.634 Y48.226 E30.14198
G1 X69.143 Y48.490 E30.19409
G1 X69.728 Y48.951 E30.26180
G1 X70.376 Y49.688 E30.35107
G1 X70.702 Y50.212 E30.40717
G1 X70.930 Y50.789 E30.46362
G1 X71.062 Y51.510 E30.53022
G1 X71.049 Y58.660 E31.18042
G1 X70.906 Y59.318 E31.24158
G1 X70.635 Y59.940 E31.30331
G1 X70.244 Y60.501 E31.36547
G1 X69.375 Y61.349 E31.47585
G1 X68.912 Y61.651 E31.52613
G1 X68.328 Y61.902 E31.58396
G1 X67.679 Y62.048 E31.64447
G1 X62.370 Y62.059 E32.12722
G1 X62.358 Y62.817 E32.19611
G1 X62.230 Y63.416 E32.25180
G1 X61.979 Y64.024 E32.31167
G1 X61.643 Y64.541 E32.36770
G1 X60.746 Y65.447 E32.48365
G1 X60.232 Y65.794 E32.54002
G1 X59.628 Y66.056 E32.59993
G1 X59.041 Y66.192 E32.65472
G1 X57.443 Y66.212 E32.79998
G1 X57.185 Y66.243 E32.82367
G1 X55.057 Y66.243 E33.01712
G1 X54.800 Y66.212 E33.04064
G1 X53.692 Y66.212 E33.14142
G1 X53.435 Y66.243 E33.16494
G1 X51.320 Y66.243 E33.35730
G1 X51.122 Y66.220 E33.37543
G1 X50.924 Y66.243 E33.39357
G1 X48.820 Y66.243 E33.58483
G1 X48.622 Y66.220 E33.60296
G1 X48.424 Y66.243 E33.62109
G1 X46.321 Y66.243 E33.81235
G1 X46.123 Y66.220 E33.83049
G1 X45.925 Y66.243 E33.84862
G1 X43.809 Y66.243 E34.04098
G1 X43.549 Y66.212 E34.06477
G1 X40.755 Y66.198 E34.31887
G1 X40.109 Y66.053 E34.37908
G1 X39.613 Y65.847 E34.42788
G1 X39.169 Y65.583 E34.47484
G1 X38.154 Y64.606 E34.60300
G1 X37.802 Y64.094 E34.65941
G1 X37.513 Y63.415 E34.72656
G1 X37.386 Y62.810 E34.78274
G1 X37.374 Y62.061 E34.85085
G1 X32.400 Y62.056 E35.30308
G1 X31.736 Y61.923 E35.36470
G1 X31.110 Y61.662 E35.42634
G1 X30.551 Y61.288 E35.48756
G1 X29.755 Y60.499 E35.58941
G1 X29.381 Y59.973 E35.64813
G1 X29.102 Y59.340 E35.71105
G1 X28.938 Y58.537 E35.78556
G1 X28.938 Y51.510 E36.42446
G1 X29.077 Y50.770 E36.49292
G1 X29.368 Y50.076 E36.56140
G1 X29.633 Y49.679 E36.60475
G1 X30.362 Y48.865 E36.70415
G1 X30.813 Y48.519 E36.75588
G1 X31.361 Y48.229 E36.81222
G1 X31.991 Y48.036 E36.87213
G1 X34.528 Y47.702 E37.10481
G1 X35.952 Y47.112 E37.24494
G1 X37.174 Y46.174 E37.38506
G1 X37.374 Y45.914 E37.41493
G1 X37.374 Y38.326 E38.10490
G1 X37.494 Y37.664 E38.16601
G1 X37.742 Y37.034 E38.22756
G1 X38.194 Y36.361 E38.30129
G1 X38.520 Y36.050 E38.34230
G1 X38.952 Y36.498 F7800.000
G1 F1800
G1 X39.524 Y35.946 E38.41458
G1 X39.885 Y35.730 E38.45285
G1 X40.527 Y35.488 E38.51525
G1 X40.932 Y35.427 E38.55250
G1 X42.346 Y35.427 E38.68103
G1 X42.585 Y35.395 E38.70300
G1 X44.724 Y35.401 E38.89742
G1 X44.886 Y35.422 E38.91231
G1 X45.094 Y35.395 E38.93135
G1 X47.152 Y35.395 E39.11848
G1 X47.372 Y35.424 E39.13873
G1 X47.593 Y35.395 E39.15898
G1 X49.651 Y35.395 E39.34611
G1 X49.872 Y35.424 E39.36635
G1 X50.093 Y35.395 E39.38660
G1 X52.151 Y35.395 E39.57373
G1 X52.372 Y35.424 E39.59398
G1 X52.592 Y35.395 E39.61423
G1 X54.650 Y35.395 E39.80136
G1 X54.871 Y35.424 E39.82161
G1 X55.092 Y35.395 E39.84186
G1 X57.162 Y35.395 E40.03013
G1 X57.398 Y35.427 E40.05178
G1 X58.814 Y35.427 E40.18051
G1 X59.413 Y35.546 E40.23605
G1 X59.923 Y35.763 E40.28642
G1 X60.384 Y36.079 E40.33726
G1 X61.186 Y36.900 E40.44165
G1 X61.417 Y37.263 E40.48070
G1 X61.624 Y37.753 E40.52913
G1 X61.731 Y38.222 E40.57285
G1 X61.745 Y45.506 E41.23522
G1 X61.711 Y45.772 E41.25954
G1 X62.371 Y46.628 E41.35783
G1 X63.726 Y47.664 E41.51292
G1 X65.302 Y48.314 E41.66801
G1 X67.897 Y48.651 E41.90591
G1 X68.373 Y48.795 E41.95114
G1 X68.829 Y49.031 E41.99782
G1 X69.277 Y49.385 E42.04972
G1 X69.888 Y50.080 E42.13388
G1 X70.153 Y50.513 E42.18002
G1 X70.336 Y50.986 E42.22621
G1 X70.437 Y51.538 E42.27719
G1 X70.431 Y58.565 E42.91621
G1 X70.318 Y59.104 E42.96621
G1 X70.101 Y59.615 E43.01672
G1 X69.785 Y60.076 E43.06756
G1 X68.963 Y60.878 E43.17195
G1 X68.601 Y61.109 E43.21100
G1 X68.110 Y61.316 E43.25943
G1 X67.642 Y61.423 E43.30314
G1 X61.742 Y61.436 E43.83956
G1 X61.739 Y62.725 E43.95682
G1 X61.640 Y63.210 E44.00183
G1 X61.435 Y63.716 E44.05144
G1 X61.174 Y64.127 E44.09567
G1 X60.326 Y64.984 E44.20532
G1 X59.914 Y65.256 E44.25020
G1 X59.412 Y65.468 E44.29979
G1 X58.938 Y65.574 E44.34392
G1 X57.398 Y65.587 E44.48396
G1 X57.162 Y65.618 E44.50561
G1 X55.079 Y65.618 E44.69501
G1 X54.843 Y65.587 E44.71667
G1 X53.649 Y65.587 E44.82526
G1 X53.413 Y65.618 E44.84691
G1 X51.343 Y65.618 E45.03518
G1 X51.122 Y65.589 E45.05543
G1 X50.901 Y65.618 E45.07568
G1 X48.843 Y65.618 E45.26281
G1 X48.622 Y65.589 E45.28306
G1 X48.401 Y65.618 E45.30330
G1 X46.343 Y65.618 E45.49043
G1 X46.123 Y65.589 E45.51068
G1 X45.902 Y65.618 E45.53093
G1 X43.831 Y65.618 E45.71920
G1 X43.594 Y65.587 E45.74098
G1 X40.793 Y65.573 E45.99565
G1 X40.325 Y65.466 E46.03937
G1 X39.875 Y65.279 E46.08364
G1 X39.525 Y65.068 E46.12086
G1 X38.614 Y64.182 E46.23632
G1 X38.339 Y63.774 E46.28112
G1 X38.103 Y63.205 E46.33708
G1 X38.005 Y62.720 E46.38207
G1 X38.000 Y61.437 E46.49874
G1 X32.435 Y61.431 E47.00482
G1 X31.896 Y61.318 E47.05482
G1 X31.385 Y61.101 E47.10533
G1 X30.929 Y60.789 E47.15560
G1 X30.215 Y60.076 E47.24734
G1 X29.940 Y59.690 E47.29040
G1 X29.687 Y59.118 E47.34727
G1 X29.563 Y58.506 E47.40411
G1 X29.563 Y51.539 E48.03761
G1 X29.667 Y50.976 E48.08961
G1 X29.907 Y50.393 E48.14699
G1 X30.116 Y50.076 E48.18150
G1 X30.767 Y49.342 E48.27067
G1 X31.171 Y49.032 E48.31704
G1 X31.622 Y48.797 E48.36330
G1 X32.098 Y48.652 E48.40847
G1 X34.691 Y48.311 E48.64632
G1 X36.267 Y47.658 E48.80140
G1 X37.620 Y46.620 E48.95649
G1 X37.999 Y46.126 E49.01313
G1 X37.999 Y38.356 E49.71963
G1 X38.102 Y37.813 E49.76990
G1 X38.308 Y37.299 E49.82025
G1 X38.652 Y36.787 E49.87630
G1 X38.909 Y36.540 E49.90874
G1 X39.343 Y36.985 F7800.000
G1 F1800
G1 X39.882 Y36.459 E49.97723
G1 X40.140 Y36.301 E50.00470
G1 X40.662 Y36.099 E50.05555
G1 X40.959 Y36.051 E50.08290
G1 X42.394 Y36.051 E50.21338
G1 X42.609 Y36.020 E50.23318
G1 X44.695 Y36.026 E50.42288
G1 X44.884 Y36.055 E50.44025
G1 X45.119 Y36.020 E50.46186
G1 X47.126 Y36.020 E50.64434
G1 X47.372 Y36.057 E50.66699
G1 X47.619 Y36.020 E50.68965
G1 X49.626 Y36.020 E50.87211
G1 X49.872 Y36.057 E50.89477
G1 X50.118 Y36.020 E50.91742
G1 X52.125 Y36.020 E51.09988
G1 X52.372 Y36.057 E51.12254
G1 X52.618 Y36.020 E51.14520
G1 X54.625 Y36.020 E51.32766
G1 X54.871 Y36.057 E51.35032
G1 X55.118 Y36.020 E51.37297
G1 X57.137 Y36.020 E51.55663
G1 X57.351 Y36.051 E51.57622
G1 X58.783 Y36.051 E51.70651
G1 X59.204 Y36.135 E51.74550
G1 X59.604 Y36.301 E51.78485
G1 X59.961 Y36.540 E51.82392
G1 X60.713 Y37.310 E51.92182
G1 X60.870 Y37.566 E51.94910
G1 X61.037 Y37.970 E51.98884
G1 X61.107 Y38.261 E52.01605
G1 X61.120 Y45.480 E52.67251
G1 X61.051 Y45.938 E52.71465
G1 X61.926 Y47.075 E52.84505
G1 X63.411 Y48.210 E53.01510
G1 X65.140 Y48.923 E53.18515
G1 X67.792 Y49.267 E53.42825
G1 X68.112 Y49.363 E53.45863
G1 X68.515 Y49.572 E53.49991
G1 X68.826 Y49.818 E53.53601
G1 X69.399 Y50.470 E53.61491
G1 X69.602 Y50.807 E53.65070
G1 X69.741 Y51.179 E53.68678
G1 X69.812 Y51.566 E53.72257
G1 X69.812 Y58.475 E54.35083
G1 X69.728 Y58.896 E54.38981
G1 X69.563 Y59.296 E54.42917
G1 X69.324 Y59.653 E54.46823
G1 X68.553 Y60.405 E54.56613
G1 X68.298 Y60.562 E54.59341
G1 X67.894 Y60.729 E54.63315
G1 X67.603 Y60.798 E54.66036
G1 X61.119 Y60.812 E55.24991
G1 X61.114 Y62.688 E55.42053
G1 X61.036 Y63.047 E55.45389
G1 X60.870 Y63.448 E55.49336
G1 X60.669 Y63.757 E55.52688
G1 X59.910 Y64.516 E55.62448
G1 X59.603 Y64.713 E55.65767
G1 X59.202 Y64.879 E55.69715
G1 X58.842 Y64.956 E55.73064
G1 X57.350 Y64.962 E55.86629
G1 X57.137 Y64.994 E55.88582
G1 X55.104 Y64.994 E56.07068
G1 X54.891 Y64.962 E56.09027
G1 X53.601 Y64.962 E56.20757
G1 X53.388 Y64.994 E56.22717
G1 X51.368 Y64.994 E56.41083
G1 X51.122 Y64.957 E56.43348
G1 X50.875 Y64.994 E56.45614
G1 X48.869 Y64.994 E56.63860
G1 X48.622 Y64.957 E56.66126
G1 X48.376 Y64.994 E56.68391
G1 X46.369 Y64.994 E56.86638
G1 X46.123 Y64.957 E56.88903
G1 X45.876 Y64.994 E56.91169
G1 X43.856 Y64.994 E57.09535
G1 X43.643 Y64.962 E57.11493
G1 X40.833 Y64.949 E57.37045
G1 X40.542 Y64.879 E57.39768
G1 X40.138 Y64.712 E57.43742
G1 X39.883 Y64.555 E57.46470
G1 X39.111 Y63.801 E57.56280
G1 X38.900 Y63.497 E57.59647
G1 X38.706 Y63.042 E57.64138
G1 X38.630 Y62.684 E57.67471
G1 X38.623 Y60.812 E57.84492
G1 X32.525 Y60.812 E58.39941
G1 X32.104 Y60.728 E58.43839
G1 X31.704 Y60.563 E58.47776
G1 X31.348 Y60.324 E58.51675
G1 X30.674 Y59.651 E58.60337
G1 X30.498 Y59.407 E58.63072
G1 X30.273 Y58.897 E58.68139
G1 X30.188 Y58.475 E58.72056
G1 X30.188 Y51.567 E59.34872
G1 X30.259 Y51.178 E59.38464
G1 X30.449 Y50.705 E59.43103
G1 X30.600 Y50.472 E59.45625
G1 X31.214 Y49.780 E59.54040
G1 X31.483 Y49.574 E59.57121
G1 X31.885 Y49.365 E59.61236
G1 X32.204 Y49.269 E59.64270
G1 X34.854 Y48.920 E59.88575
G1 X36.582 Y48.204 E60.05580
G1 X38.066 Y47.066 E60.22585
G1 X38.659 Y46.292 E60.31450
G1 X38.624 Y46.060 E60.33588
G1 X38.624 Y38.388 E61.03344
G1 X38.708 Y37.968 E61.07242
G1 X38.873 Y37.568 E61.11178
G1 X39.112 Y37.211 E61.15084
G1 X39.300 Y37.027 E61.17477
G1 X39.738 Y37.470 F7800.000
G1 F1800
G1 X40.248 Y36.967 E61.23988
G1 X40.402 Y36.869 E61.25653
G1 X40.804 Y36.708 E61.29587
G1 X40.987 Y36.676 E61.31279
G1 X42.448 Y36.676 E61.44564
G1 X42.637 Y36.645 E61.46298
G1 X44.662 Y36.651 E61.64711
G1 X44.879 Y36.690 E61.66719
G1 X45.148 Y36.645 E61.69203
G1 X47.097 Y36.645 E61.86922
G1 X47.372 Y36.691 E61.89462
G1 X47.648 Y36.645 E61.92002
G1 X49.597 Y36.645 E62.09720
G1 X49.872 Y36.691 E62.12261
G1 X50.148 Y36.645 E62.14801
G1 X52.096 Y36.645 E62.32519
G1 X52.372 Y36.691 E62.35059
G1 X52.647 Y36.645 E62.37600
G1 X54.596 Y36.645 E62.55318
G1 X54.871 Y36.691 E62.57858
G1 X55.147 Y36.645 E62.60398
G1 X57.108 Y36.645 E62.78236
