; generated by PrusaSlicer 2.0.0+linux64 on 2022-03-18 at 14:58:49

; 

; external perimeters extrusion width = 0.45mm
; perimeters extrusion width = 0.45mm
; infill extrusion width = 0.45mm
; solid infill extrusion width = 0.45mm
; top infill extrusion width = 0.40mm
; support material extrusion width = 0.40mm
; first layer extrusion width = 0.42mm

M201 X9000 Y9000 Z500 E10000 ; sets maximum accelerations, mm/sec^2
M203 X500 Y500 Z12 E120 ; sets maximum feedrates, mm/sec
M204 P1500 R1500 T1500 ; sets acceleration (P, T) and retract acceleration (R), mm/sec^2
M205 X10.00 Y10.00 Z0.20 E2.50 ; sets the jerk limits, mm/sec
M205 S0 T0 ; sets the minimum extruding and travel feed rate, mm/sec
M107
M104 S225 ; set temperature
G90                         ; Explicitly force absolute positioning in case it was not reset previously.
G28                         ; Home all axes.
G29                         ; Auto-level the bed.
; Filament gcode
M109 S225 ; set temperature and wait for it to be reached
G21 ; set units to millimeters
G90 ; use absolute coordinates
M82 ; use absolute distances for extrusion
G92 E0
G1 Z0.350 F7800.000
G1 E-2.00000 F2400.00000
G92 E0
G1 X35.207 Y34.712 F7800.000
G1 E2.00000 F2400.00000
G1 F1800
G1 X36.275 Y33.794 E2.07069
G1 X37.517 Y33.143 E2.14108
G1 X38.880 Y32.789 E2.21178
G1 X39.669 Y32.729 E2.25148
G1 X57.683 Y32.573 E3.15555
G1 X59.781 Y32.771 E3.26132
G1 X60.554 Y32.913 E3.30072
G1 X61.562 Y33.261 E3.35425
G1 X62.496 Y33.776 E3.40778
G1 X63.397 Y34.514 E3.46622
G1 X64.143 Y35.407 E3.52466
G1 X64.711 Y36.431 E3.58341
G1 X65.075 Y37.537 E3.64185
G1 X65.227 Y38.858 E3.70856
G1 X65.225 Y59.390 E4.73900
G1 X64.999 Y60.886 E4.81490
G1 X64.417 Y62.281 E4.89079
G1 X63.538 Y63.467 E4.96485
G1 X62.398 Y64.413 E5.03921
G1 X61.071 Y65.059 E5.11327
G1 X59.622 Y65.371 E5.18764
G1 X42.261 Y65.392 E6.05896
G1 X40.804 Y65.159 E6.13301
G1 X39.443 Y64.587 E6.20707
G1 X38.556 Y63.973 E6.26122
G1 X37.794 Y63.218 E6.31506
G1 X37.170 Y62.338 E6.36920
G1 X36.710 Y61.362 E6.42335
G1 X33.662 Y48.951 E7.06474
G1 X33.569 Y47.931 E7.11613
G1 X33.578 Y38.563 E7.58625
G1 X33.820 Y37.157 E7.65786
G1 X34.378 Y35.844 E7.72948
G1 X35.172 Y34.761 E7.79685
G1 X35.455 Y35.040 F7800.000
G1 F1800
G1 X36.467 Y34.010 E7.86929
G1 X37.746 Y33.369 E7.94110
G1 X39.179 Y33.050 E8.01475
G1 X57.359 Y33.040 E8.92715
G1 X57.750 Y33.063 E8.94682
G1 X58.019 Y33.037 E8.96038
G1 X59.618 Y33.045 E9.04063
G1 X61.259 Y33.452 E9.12546
G1 X62.739 Y34.319 E9.21154
G1 X63.600 Y35.183 E9.27277
G1 X64.287 Y36.202 E9.33444
G1 X64.896 Y38.223 E9.44035
G1 X64.918 Y59.772 E10.52182
G1 X64.588 Y61.208 E10.59576
G1 X64.073 Y62.275 E10.65523
G1 X62.895 Y63.588 E10.74377
G1 X61.997 Y64.243 E10.79952
G1 X59.752 Y64.920 E10.91723
G1 X58.968 Y64.909 E10.95656
G1 X58.688 Y64.934 E10.97069
G1 X57.330 Y64.920 E11.03882
G1 X55.969 Y64.934 E11.10716
G1 X55.676 Y64.907 E11.12191
G1 X55.259 Y64.933 E11.14286
G1 X45.609 Y64.920 E11.62718
G1 X42.851 Y64.933 E11.76557
G1 X42.583 Y64.909 E11.77906
G1 X41.914 Y64.919 E11.81266
G1 X40.558 Y64.667 E11.88189
G1 X39.283 Y64.072 E11.95248
G1 X37.591 Y62.430 E12.07081
G1 X37.020 Y61.358 E12.13175
G1 X36.683 Y60.126 E12.19587
G1 X36.636 Y57.064 E12.34958
G1 X36.785 Y56.377 E12.38483
G1 X36.637 Y55.650 E12.42206
G1 X36.637 Y52.745 E12.56788
G1 X36.100 Y52.423 E12.59928
G1 X34.916 Y51.203 E12.68459
G1 X34.312 Y50.140 E12.74596
G1 X33.956 Y48.999 E12.80594
G1 X33.877 Y38.494 E13.33317
G1 X34.158 Y37.050 E13.40700
G1 X34.797 Y35.709 E13.48154
G1 X35.413 Y35.082 E13.52562
G1 X35.652 Y35.318 F7800.000
G1 F1800
G1 X36.647 Y34.306 E13.59682
G1 X37.881 Y33.687 E13.66611
G1 X39.234 Y33.391 E13.73561
G1 X57.354 Y33.385 E14.64498
G1 X57.757 Y33.408 E14.66524
G1 X58.027 Y33.382 E14.67884
G1 X59.596 Y33.390 E14.75758
G1 X61.151 Y33.780 E14.83805
G1 X62.511 Y34.578 E14.91715
G1 X63.344 Y35.414 E14.97642
G1 X63.985 Y36.372 E15.03426
G1 X64.559 Y38.297 E15.13505
G1 X64.573 Y59.752 E16.21180
G1 X64.257 Y61.110 E16.28179
G1 X63.774 Y62.101 E16.33712
G1 X62.651 Y63.343 E16.42112
G1 X61.819 Y63.946 E16.47273
G1 X59.730 Y64.575 E16.58218
G1 X58.955 Y64.564 E16.62110
G1 X58.682 Y64.589 E16.63484
G1 X57.330 Y64.575 E16.70270
G1 X55.974 Y64.589 E16.77074
G1 X55.682 Y64.561 E16.78551
G1 X55.254 Y64.588 E16.80701
G1 X45.608 Y64.575 E17.29110
G1 X42.858 Y64.588 E17.42911
G1 X42.597 Y64.564 E17.44226
G1 X41.927 Y64.574 E17.47591
G1 X40.644 Y64.332 E17.54143
G1 X39.457 Y63.773 E17.60729
G1 X37.852 Y62.203 E17.71996
G1 X37.348 Y61.248 E17.77416
G1 X37.027 Y60.098 E17.83405
G1 X36.981 Y57.079 E17.98557
G1 X37.138 Y56.380 E18.02155
G1 X36.982 Y55.632 E18.05989
G1 X36.982 Y52.546 E18.21479
G1 X36.330 Y52.165 E18.25268
G1 X35.204 Y51.012 E18.33351
G1 X34.636 Y50.019 E18.39095
G1 X34.293 Y48.921 E18.44870
G1 X34.222 Y38.509 E18.97123
G1 X34.492 Y37.138 E19.04133
G1 X35.096 Y35.884 E19.11118
G1 X35.610 Y35.361 E19.14803
G1 X35.850 Y35.596 F7800.000
G1 F1800
G1 X36.828 Y34.601 E19.21806
G1 X37.978 Y34.019 E19.28272
G1 X39.253 Y33.736 E19.34829
G1 X57.349 Y33.729 E20.25644
G1 X57.764 Y33.754 E20.27733
G1 X58.035 Y33.727 E20.29096
G1 X59.573 Y33.734 E20.36819
G1 X60.999 Y34.091 E20.44193
G1 X62.282 Y34.837 E20.51644
G1 X63.088 Y35.646 E20.57370
G1 X63.684 Y36.541 E20.62768
G1 X64.221 Y38.370 E20.72335
G1 X64.228 Y59.732 E21.79541
G1 X63.926 Y61.012 E21.86140
G1 X63.476 Y61.927 E21.91259
G1 X62.409 Y63.097 E21.99204
G1 X61.641 Y63.650 E22.03954
G1 X59.709 Y64.230 E22.14077
G1 X58.941 Y64.219 E22.17932
G1 X58.677 Y64.244 E22.19265
G1 X57.330 Y64.230 E22.26022
G1 X55.981 Y64.244 E22.32795
G1 X55.688 Y64.215 E22.34273
G1 X55.249 Y64.243 E22.36480
G1 X45.608 Y64.230 E22.84865
G1 X42.866 Y64.243 E22.98627
G1 X42.612 Y64.219 E22.99907
G1 X41.940 Y64.229 E23.03280
G1 X40.731 Y63.997 E23.09456
G1 X39.631 Y63.474 E23.15569
G1 X38.144 Y62.017 E23.26018
G1 X37.675 Y61.137 E23.31024
G1 X37.365 Y60.027 E23.36804
G1 X37.326 Y57.096 E23.51515
G1 X37.492 Y56.383 E23.55189
G1 X37.327 Y55.613 E23.59140
G1 X37.327 Y52.584 E23.74341
G1 X37.366 Y52.367 E23.75450
G1 X36.558 Y51.905 E23.80121
G1 X35.493 Y50.822 E23.87748
G1 X34.945 Y49.865 E23.93282
G1 X34.630 Y48.844 E23.98643
G1 X34.567 Y38.525 E24.50431
G1 X34.826 Y37.228 E24.57066
G1 X35.393 Y36.060 E24.63582
G1 X35.808 Y35.639 E24.66549
G1 X36.047 Y35.874 F7800.000
G1 F1800
G1 X37.009 Y34.896 E24.73432
G1 X38.114 Y34.337 E24.79648
G1 X39.272 Y34.081 E24.85600
G1 X57.344 Y34.074 E25.76294
G1 X57.772 Y34.100 E25.78449
G1 X58.043 Y34.072 E25.79814
G1 X59.550 Y34.079 E25.87381
G1 X60.891 Y34.419 E25.94319
G1 X62.054 Y35.097 E26.01075
G1 X62.831 Y35.877 E26.06601
G1 X63.382 Y36.709 E26.11611
G1 X63.876 Y38.395 E26.20425
G1 X63.883 Y59.711 E27.27404
G1 X63.595 Y60.912 E27.33599
G1 X63.178 Y61.751 E27.38303
G1 X62.168 Y62.850 E27.45794
G1 X61.464 Y63.352 E27.50135
G1 X59.688 Y63.885 E27.59441
G1 X58.926 Y63.874 E27.63262
G1 X58.670 Y63.899 E27.64552
G1 X57.330 Y63.885 E27.71279
G1 X55.987 Y63.899 E27.78019
G1 X55.694 Y63.869 E27.79497
G1 X55.243 Y63.898 E27.81764
G1 X45.607 Y63.885 E28.30126
G1 X42.873 Y63.898 E28.43846
G1 X42.627 Y63.874 E28.45089
G1 X41.952 Y63.883 E28.48476
G1 X40.859 Y63.676 E28.54059
G1 X39.805 Y63.175 E28.59916
G1 X38.435 Y61.831 E28.69549
G1 X38.002 Y61.025 E28.74139
G1 X37.704 Y59.956 E28.79707
G1 X37.671 Y57.115 E28.93970
G1 X37.846 Y56.387 E28.97727
G1 X37.671 Y55.594 E29.01798
G1 X37.671 Y52.606 E29.16795
G1 X37.762 Y52.192 E29.18921
G1 X36.786 Y51.645 E29.24533
G1 X35.755 Y50.596 E29.31918
G1 X35.255 Y49.712 E29.37016
G1 X34.968 Y48.768 E29.41970
G1 X34.912 Y38.540 E29.93298
G1 X35.146 Y37.359 E29.99342
G1 X35.691 Y36.236 E30.05605
G1 X36.005 Y35.917 E30.07852
G1 X36.245 Y36.152 F7800.000
G1 F1800
G1 X37.191 Y35.190 E30.14624
G1 X38.211 Y34.668 E30.20376
G1 X39.291 Y34.426 E30.25932
G1 X57.338 Y34.419 E31.16502
G1 X57.781 Y34.447 E31.18726
G1 X58.051 Y34.417 E31.20092
G1 X59.528 Y34.424 E31.27503
G1 X60.739 Y34.730 E31.33773
G1 X61.826 Y35.356 E31.40067
G1 X62.574 Y36.108 E31.45388
G1 X63.079 Y36.877 E31.50007
G1 X63.531 Y38.419 E31.58074
G1 X63.538 Y59.690 E32.64824
G1 X63.265 Y60.810 E32.70608
G1 X62.881 Y61.573 E32.74896
G1 X61.928 Y62.601 E32.81934
G1 X61.288 Y63.054 E32.85867
G1 X59.666 Y63.539 E32.94362
G1 X58.911 Y63.529 E32.98154
G1 X58.664 Y63.554 E32.99400
G1 X57.330 Y63.540 E33.06093
G1 X55.994 Y63.554 E33.12798
G1 X55.719 Y63.524 E33.14189
G1 X55.494 Y63.524 E33.15314
G1 X55.231 Y63.553 E33.16647
G1 X45.606 Y63.540 E33.64946
G1 X42.881 Y63.553 E33.78623
G1 X42.642 Y63.529 E33.79828
G1 X41.965 Y63.538 E33.83229
G1 X40.947 Y63.342 E33.88433
G1 X39.980 Y62.877 E33.93814
G1 X38.725 Y61.643 E34.02647
G1 X38.329 Y60.913 E34.06815
G1 X38.042 Y59.886 E34.12169
G1 X38.016 Y57.134 E34.25981
G1 X38.200 Y56.391 E34.29824
G1 X38.016 Y55.575 E34.34021
G1 X38.016 Y52.627 E34.48814
G1 X38.135 Y52.120 E34.51426
G1 X38.096 Y51.982 E34.52149
G1 X37.014 Y51.385 E34.58348
G1 X36.017 Y50.371 E34.65485
G1 X35.565 Y49.560 E34.70146
G1 X35.312 Y48.740 E34.74453
G1 X35.257 Y38.556 E35.25563
G1 X35.480 Y37.449 E35.31228
G1 X35.989 Y36.413 E35.37020
G1 X36.203 Y36.195 E35.38556
G1 X36.443 Y36.431 F7800.000
G1 F1800
G1 X37.374 Y35.484 E35.45222
G1 X38.310 Y34.999 E35.50511
G1 X39.311 Y34.771 E35.55666
G1 X57.324 Y34.764 E36.46062
G1 X57.550 Y34.791 E36.47207
G1 X57.806 Y34.791 E36.48490
G1 X58.060 Y34.762 E36.49775
G1 X59.505 Y34.769 E36.57024
G1 X60.630 Y35.058 E36.62857
G1 X61.598 Y35.616 E36.68461
G1 X62.317 Y36.338 E36.73576
G1 X62.776 Y37.044 E36.77801
G1 X63.186 Y38.444 E36.85124
G1 X63.193 Y59.669 E37.91643
G1 X62.936 Y60.707 E37.97012
G1 X62.586 Y61.395 E38.00883
G1 X61.689 Y62.352 E38.07467
G1 X61.113 Y62.756 E38.10996
G1 X59.645 Y63.194 E38.18685
G1 X58.895 Y63.183 E38.22452
G1 X58.657 Y63.209 E38.23651
G1 X57.330 Y63.196 E38.30310
G1 X56.002 Y63.209 E38.36978
G1 X55.738 Y63.179 E38.38308
G1 X55.474 Y63.179 E38.39632
G1 X55.221 Y63.208 E38.40913
G1 X45.606 Y63.195 E38.89167
G1 X42.890 Y63.209 E39.02797
G1 X42.659 Y63.183 E39.03962
G1 X41.978 Y63.193 E39.07379
G1 X41.036 Y63.008 E39.12199
G1 X40.157 Y62.580 E39.17105
G1 X39.015 Y61.455 E39.25151
G1 X38.655 Y60.801 E39.28895
G1 X38.380 Y59.815 E39.34030
G1 X38.361 Y57.155 E39.47384
G1 X38.555 Y56.395 E39.51319
G1 X38.361 Y55.555 E39.55648
G1 X38.361 Y52.649 E39.70231
G1 X38.492 Y52.115 E39.72987
G1 X38.371 Y51.685 E39.75228
G1 X38.142 Y51.616 E39.76431
G1 X37.242 Y51.125 E39.81574
G1 X36.280 Y50.147 E39.88460
G1 X35.876 Y49.411 E39.92674
G1 X35.650 Y48.664 E39.96589
G1 X35.602 Y38.573 E40.47235
G1 X35.813 Y37.541 E40.52519
G1 X36.285 Y36.592 E40.57840
G1 X36.401 Y36.474 E40.58670
G1 X36.641 Y36.710 F7800.000
G1 F1800
G1 X37.558 Y35.776 E40.65237
G1 X38.410 Y35.330 E40.70065
G1 X39.332 Y35.116 E40.74812
G1 X57.313 Y35.109 E41.65051
G1 X57.529 Y35.136 E41.66144
G1 X57.827 Y35.136 E41.67641
G1 X58.070 Y35.107 E41.68868
G1 X59.481 Y35.114 E41.75950
G1 X60.520 Y35.386 E41.81343
G1 X61.369 Y35.876 E41.86262
G1 X62.059 Y36.568 E41.91169
G1 X62.473 Y37.209 E41.94997
G1 X62.841 Y38.469 E42.01583
G1 X62.849 Y59.647 E43.07869
G1 X62.606 Y60.602 E43.12815
G1 X62.291 Y61.214 E43.16269
G1 X61.451 Y62.102 E43.22400
G1 X60.939 Y62.457 E43.25526
G1 X59.624 Y62.849 E43.32416
G1 X58.877 Y62.838 E43.36163
G1 X58.649 Y62.864 E43.37314
G1 X57.330 Y62.851 E43.43934
G1 X56.009 Y62.864 E43.50563
G1 X55.759 Y62.835 E43.51830
G1 X55.454 Y62.835 E43.53362
G1 X55.210 Y62.864 E43.54590
G1 X45.605 Y62.851 E44.02795
G1 X42.899 Y62.864 E44.16378
G1 X42.677 Y62.838 E44.17500
G1 X41.992 Y62.848 E44.20937
G1 X41.127 Y62.675 E44.25365
G1 X40.335 Y62.283 E44.29796
G1 X39.304 Y61.265 E44.37070
G1 X38.982 Y60.688 E44.40385
G1 X38.719 Y59.745 E44.45298
G1 X38.706 Y57.176 E44.58190
G1 X38.899 Y56.446 E44.61980
G1 X38.888 Y56.247 E44.62983
G1 X38.706 Y55.531 E44.66688
G1 X38.706 Y52.671 E44.81041
G1 X38.849 Y52.112 E44.83937
G1 X38.725 Y51.669 E44.86246
G1 X38.709 Y51.416 E44.87519
G1 X38.287 Y51.303 E44.89713
G1 X37.431 Y50.835 E44.94607
G1 X36.545 Y49.924 E45.00983
G1 X36.188 Y49.263 E45.04751
G1 X35.987 Y48.590 E45.08280
G1 X35.947 Y38.590 E45.58467
G1 X36.146 Y37.634 E45.63365
G1 X36.599 Y36.752 E45.68340
G1 X36.876 Y36.950 F7800.000
G1 F1800
G1 X37.743 Y36.068 E45.74546
G1 X38.512 Y35.660 E45.78915
G1 X39.352 Y35.460 E45.83248
G1 X57.301 Y35.454 E46.73325
G1 X57.506 Y35.481 E46.74361
G1 X57.849 Y35.481 E46.76083
G1 X58.080 Y35.452 E46.77251
G1 X59.457 Y35.458 E46.84162
G1 X60.409 Y35.713 E46.89109
G1 X61.141 Y36.135 E46.93350
G1 X61.802 Y36.798 E46.98047
G1 X62.169 Y37.374 E47.01473
G1 X62.497 Y38.493 E47.07328
G1 X62.504 Y59.625 E48.13379
G1 X62.278 Y60.496 E48.17894
G1 X61.997 Y61.032 E48.20931
G1 X61.215 Y61.850 E48.26611
G1 X60.767 Y62.157 E48.29336
G1 X59.602 Y62.504 E48.35434
G1 X58.859 Y62.493 E48.39166
G1 X58.641 Y62.519 E48.40266
G1 X57.330 Y62.506 E48.46846
G1 X56.018 Y62.519 E48.53432
G1 X55.780 Y62.490 E48.54634
G1 X55.432 Y62.490 E48.56384
G1 X55.200 Y62.519 E48.57557
G1 X45.605 Y62.506 E49.05710
G1 X42.908 Y62.519 E49.19242
G1 X42.695 Y62.493 E49.20319
G1 X42.006 Y62.503 E49.23779
G1 X41.219 Y62.342 E49.27810
G1 X40.515 Y61.988 E49.31764
G1 X39.592 Y61.073 E49.38286
G1 X39.308 Y60.574 E49.41166
G1 X39.057 Y59.675 E49.45852
G1 X39.051 Y57.200 E49.58275
G1 X39.246 Y56.484 E49.61998
G1 X39.231 Y56.192 E49.63464
G1 X39.051 Y55.508 E49.67013
G1 X39.051 Y52.695 E49.81134
G1 X39.207 Y52.111 E49.84166
G1 X39.063 Y51.599 E49.86832
G1 X39.051 Y51.144 E49.89118
G1 X38.431 Y50.989 E49.92322
G1 X37.620 Y50.545 E49.96964
G1 X36.811 Y49.704 E50.02821
G1 X36.502 Y49.119 E50.06141
G1 X36.325 Y48.516 E50.09292
G1 X36.292 Y38.606 E50.59028
G1 X36.464 Y37.769 E50.63318
G1 X36.849 Y37.004 E50.67617
G1 X37.156 Y37.161 F7800.000
G1 F1800
G1 X37.930 Y36.359 E50.73208
G1 X38.616 Y35.990 E50.77120
G1 X39.373 Y35.805 E50.81031
G1 X57.288 Y35.799 E51.70939
G1 X57.481 Y35.825 E51.71915
G1 X57.872 Y35.825 E51.73877
G1 X58.090 Y35.797 E51.74982
G1 X59.432 Y35.803 E51.81715
G1 X60.297 Y36.039 E51.86214
G1 X60.913 Y36.395 E51.89784
G1 X61.543 Y37.028 E51.94268
G1 X61.864 Y37.537 E51.97287
G1 X62.152 Y38.518 E52.02420
G1 X62.159 Y59.602 E53.08231
G1 X61.950 Y60.387 E53.12307
G1 X61.705 Y60.848 E53.14926
G1 X60.980 Y61.596 E53.20155
G1 X60.596 Y61.856 E53.22483
G1 X59.581 Y62.159 E53.27797
G1 X58.839 Y62.148 E53.31521
G1 X58.632 Y62.174 E53.32567
G1 X57.330 Y62.161 E53.39103
G1 X56.027 Y62.174 E53.45643
G1 X55.803 Y62.145 E53.46777
G1 X55.409 Y62.145 E53.48757
G1 X55.188 Y62.174 E53.49872
G1 X45.604 Y62.161 E53.97971
G1 X42.919 Y62.174 E54.11448
G1 X42.715 Y62.148 E54.12477
G1 X42.019 Y62.158 E54.15970
G1 X41.353 Y62.023 E54.19380
G1 X40.695 Y61.692 E54.23080
G1 X39.878 Y60.880 E54.28858
G1 X39.634 Y60.460 E54.31297
G1 X39.396 Y59.605 E54.35750
G1 X39.396 Y57.224 E54.47698
G1 X39.601 Y56.500 E54.51476
G1 X39.574 Y56.317 E54.52403
G1 X39.579 Y56.158 E54.53202
G1 X39.396 Y55.485 E54.56704
G1 X39.396 Y52.719 E54.70583
G1 X39.565 Y52.112 E54.73749
G1 X39.402 Y51.529 E54.76783
G1 X39.394 Y50.810 E54.80396
G1 X39.093 Y50.798 E54.81906
G1 X38.573 Y50.674 E54.84591
G1 X37.847 Y50.285 E54.88722
G1 X37.104 Y49.520 E54.94073
G1 X36.815 Y48.974 E54.97176
G1 X36.663 Y48.445 E54.99940
G1 X36.637 Y38.624 E55.49227
G1 X36.797 Y37.863 E55.53128
G1 X37.129 Y37.214 E55.56786
G1 X37.434 Y37.373 F7800.000
G1 F1800
G1 X37.465 Y37.314 E55.57123
G1 X38.118 Y36.649 E55.61798
G1 X38.722 Y36.319 E55.65256
G1 X39.395 Y36.150 E55.68736
G1 X57.275 Y36.144 E56.58467
G1 X57.455 Y36.170 E56.59380
G1 X57.897 Y36.170 E56.61598
G1 X58.102 Y36.142 E56.62637
G1 X59.406 Y36.148 E56.69185
G1 X60.182 Y36.365 E56.73229
G1 X60.685 Y36.654 E56.76137
G1 X61.285 Y37.257 E56.80404
G1 X61.558 Y37.698 E56.83011
G1 X61.807 Y38.543 E56.87430
G1 X61.814 Y59.578 E57.92998
G1 X61.623 Y60.276 E57.96626
G1 X61.414 Y60.661 E57.98826
G1 X60.747 Y61.342 E58.03607
G1 X60.427 Y61.555 E58.05538
G1 X59.560 Y61.813 E58.10079
G1 X58.818 Y61.803 E58.13803
G1 X58.623 Y61.829 E58.14791
G1 X57.330 Y61.816 E58.21279
G1 X56.037 Y61.829 E58.27769
G1 X55.827 Y61.800 E58.28831
G1 X55.384 Y61.800 E58.31056
G1 X55.176 Y61.829 E58.32110
G1 X45.603 Y61.816 E58.80151
